;Sliced by ideaMaker 4.2.2.5450, 2022-04-17 15:08:43 UTC+0200
;Dimension: 225.000 215.000 225.000 0.400
;Plate Shape: 0
;Origin Center: 0
;Extruder Offset #1: 25.000 0.000
;Filament Diameter #1: 1.750
;Filament Diameter #2: 1.750
;Filament Compensation #1: 97.00
;Filament Compensation #2: 100.00
;Filament Density #1: 1240.00
;Filament Density #2: 1240.00
;Bounding Box: 90.364 134.636 77.865 137.136 0.000 12.000
;Model Gap: 0.000
M221 T0 S97.00
M140 S62.00
M104 T0 S220.00
M109 T0 S220.00
T0
M190 S62.00
M900 K0.95
G28 ; Home all axes
G92 E0 ; Reset Extruder
G1 Z2.0 F3000 ; Move Z Axis up little to prevent scratching of Heat Bed
G1 X0.1 Y20 Z0.3 F5000.0 ; Move to start position
G1 X0.1 Y200.0 Z0.3 F1500.0 E15 ; Draw the first line
G1 X0.4 Y200.0 Z0.3 F5000.0 ; Move to side a little
G1 X0.4 Y20 Z0.3 F1500.0 E30 ; Draw the second line
G92 E0 ; Reset Extruder
G1 Z2.0 F3000 ; Move Z Axis up little to prevent scratching of Heat Bed
;TOTAL_NUM: 1
;PRINTING_TIME: 0
;REMAINING_TIME: 3091
;LAYER:0
;Z:0.200
;HEIGHT:0.200
M106 S0
;PRINTING: NON-OBJECT
;PRINTING_ID: -1
G1 F3600 E-4.0000
G0 F9000 X91.464 Y79.054
G0 F1500 Z0.200
G0 F9000 X91.539 Y79.119
;TYPE:SKIRT
;WIDTH:0.400
G1 F3000 E0.0000
G1 F1500 X92.029 Y78.696 E0.0215
G1 X92.599 Y78.333 E0.0440
G1 X93.117 Y78.115 E0.0627
G1 X93.596 Y77.977 E0.0793
G1 X94.082 Y77.888 E0.0957
G1 X94.483 Y77.865 E0.1091
G1 X130.544 Y77.865 E1.3085
G1 X131.051 Y77.905 E1.3254
G1 X131.497 Y78.001 E1.3406
G1 X132.200 Y78.239 E1.3652
G1 X132.803 Y78.577 E1.3882
G1 X133.381 Y79.039 E1.4128
G1 X133.804 Y79.529 E1.4344
G1 X134.170 Y80.108 E1.4572
G1 X134.419 Y80.729 E1.4794
G1 X134.506 Y81.030 E1.4898
G1 X134.598 Y81.473 E1.5049
G1 X134.634 Y81.956 E1.5210
G1 X134.636 Y133.016 E3.2192
G1 X134.593 Y133.561 E3.2374
G1 X134.415 Y134.285 E3.2622
G1 X134.230 Y134.770 E3.2795
G1 X133.923 Y135.303 E3.3000
G1 X133.461 Y135.881 E3.3246
G1 X132.971 Y136.304 E3.3461
G1 X132.460 Y136.635 E3.3663
G1 X131.771 Y136.919 E3.3911
G1 X131.470 Y137.006 E3.4016
G1 X130.973 Y137.105 E3.4184
G1 X130.517 Y137.135 E3.4336
G1 X94.484 Y137.136 E4.6321
G1 X93.939 Y137.093 E4.6503
G1 X93.215 Y136.915 E4.6750
G1 X92.730 Y136.730 E4.6923
G1 X92.197 Y136.423 E4.7128
G1 X91.619 Y135.961 E4.7374
G1 X91.196 Y135.471 E4.7589
G1 X90.865 Y134.960 E4.7792
G1 X90.581 Y134.271 E4.8039
G1 X90.494 Y133.970 E4.8144
G1 X90.395 Y133.473 E4.8312
G1 X90.365 Y133.017 E4.8464
G1 X90.364 Y81.984 E6.5438
G1 X90.407 Y81.439 E6.5620
G1 X90.585 Y80.715 E6.5868
G1 X90.770 Y80.230 E6.6040
G1 X91.077 Y79.697 E6.6245
G1 X91.477 Y79.197 E6.6458
G0 F1500 X91.539 Y79.119
G0 F9000 X91.802 Y79.420
G1 F1500 X92.246 Y79.032 E6.6654
G1 X92.757 Y78.701 E6.6857
G1 X93.228 Y78.499 E6.7027
G1 X93.707 Y78.361 E6.7193
G1 X94.152 Y78.282 E6.7343
G1 X94.483 Y78.265 E6.7453
G1 X130.516 Y78.264 E7.9438
G1 X130.967 Y78.296 E7.9588
G1 X131.413 Y78.392 E7.9740
G1 X132.070 Y78.617 E7.9971
G1 X132.603 Y78.924 E8.0176
G1 X133.080 Y79.302 E8.0378
G1 X133.468 Y79.746 E8.0574
G1 X133.799 Y80.257 E8.0777
G1 X134.048 Y80.878 E8.0999
G1 X134.114 Y81.111 E8.1080
G1 X134.206 Y81.554 E8.1230
G1 X134.235 Y81.983 E8.1373
G1 X134.236 Y133.016 E9.8347
G1 X134.204 Y133.467 E9.8497
G1 X134.040 Y134.146 E9.8730
G1 X133.883 Y134.570 E9.8880
G1 X133.576 Y135.103 E9.9085
G1 X133.198 Y135.580 E9.9287
G1 X132.754 Y135.968 E9.9483
G1 X132.243 Y136.299 E9.9686
G1 X131.622 Y136.548 E9.9908
G1 X131.389 Y136.614 E9.9989
G1 X130.946 Y136.706 E10.0139
G1 X130.517 Y136.735 E10.0282
G1 X94.484 Y136.736 E11.2267
G1 X94.033 Y136.704 E11.2417
G1 X93.354 Y136.540 E11.2650
G1 X92.930 Y136.383 E11.2800
G1 X92.397 Y136.076 E11.3004
G1 X91.920 Y135.698 E11.3207
G1 X91.532 Y135.254 E11.3403
G1 X91.201 Y134.743 E11.3606
G1 X90.952 Y134.122 E11.3828
G1 X90.886 Y133.889 E11.3909
G1 X90.794 Y133.446 E11.4059
G1 X90.765 Y133.017 E11.4202
G1 X90.764 Y81.984 E13.1176
G1 X90.796 Y81.533 E13.1326
G1 X90.960 Y80.854 E13.1558
G1 X91.117 Y80.430 E13.1709
G1 X91.424 Y79.897 E13.1913
G1 X91.740 Y79.498 E13.2083
G0 F1500 X91.802 Y79.420
;PRINTING: arduino_case.stl
;PRINTING_ID: 0
G1 F3600 E9.2083
G0 F9000 X94.564 Y82.069
;TYPE:WALL-INNER
;WIDTH:0.400
G1 F3000 E13.2083
G1 F1500 X130.435 Y82.065 E14.4013
G1 X130.436 Y132.931 E16.0932
G1 X94.569 Y132.936 E17.2861
G1 X94.564 Y82.169 E18.9746
G0 F1500 X94.564 Y82.069
G1 F3600 E14.9746
G0 F9000 X94.262 Y82.031
G0 F9000 X94.164 Y82.013
;TYPE:WALL-OUTER
;WIDTH:0.400
G1 F3000 E18.9746
G1 F1500 X94.214 Y81.840 E18.9806
G1 X94.267 Y81.765 E18.9837
G1 X94.339 Y81.713 E18.9866
G1 X94.510 Y81.665 E18.9925
G1 X130.487 Y81.664 E20.1891
G1 X130.660 Y81.714 E20.1951
G1 X130.735 Y81.767 E20.1982
G1 X130.787 Y81.839 E20.2011
G1 X130.835 Y82.010 E20.2070
G1 X130.836 Y132.987 E21.9025
G1 X130.786 Y133.160 E21.9085
G1 X130.733 Y133.235 E21.9116
G1 X130.661 Y133.287 E21.9145
G1 X130.490 Y133.335 E21.9204
G1 X94.513 Y133.336 E23.1170
G1 X94.340 Y133.286 E23.1230
G1 X94.265 Y133.233 E23.1261
G1 X94.213 Y133.161 E23.1290
G1 X94.165 Y132.990 E23.1349
G1 X94.164 Y82.113 E24.8271
G0 F1500 X94.164 Y82.013
G0 F1800 X94.214 Y81.840
G0 X94.267 Y81.765
G0 X94.339 Y81.713
G0 X94.379 Y81.701
G0 F1800 X94.475 Y81.675
G1 F3600 E20.8271
G0 F9000 X130.006 Y82.206
;TYPE:SOLID-FILL
;WIDTH:0.400
G1 F3000 E24.8271
G1 F1500 X130.295 Y82.494 E24.8407
G0 F9000 X130.295 Y83.060
G1 F1500 X129.440 Y82.206 E24.8809
G1 F3600 E20.8809
G0 F9000 X128.875 Y82.206
G1 F3000 E24.8809
G1 F1500 X130.295 Y83.625 E24.9476
G1 F3600 E20.9476
G0 F9000 X130.295 Y84.191
G1 F3000 E24.9476
G1 F1500 X128.309 Y82.206 E25.0410
G1 F3600 E21.0410
G0 F9000 X127.743 Y82.206
G1 F3000 E25.0410
G1 F1500 X130.295 Y84.757 E25.1610
G1 F3600 E21.1610
G0 F9000 X130.295 Y85.323
G1 F3000 E25.1610
G1 F1500 X127.178 Y82.206 E25.3077
G1 F3600 E21.3077
G0 F9000 X126.612 Y82.206
G1 F3000 E25.3077
G1 F1500 X130.295 Y85.888 E25.4809
G1 F3600 E21.4809
G0 F9000 X130.295 Y86.454
G1 F3000 E25.4809
G1 F1500 X126.046 Y82.206 E25.6807
G1 F3600 E21.6807
G0 F9000 X125.481 Y82.206
G1 F3000 E25.6807
G1 F1500 X130.295 Y87.020 E25.9071
G1 F3600 E21.9071
G0 F9000 X130.295 Y87.585
G1 F3000 E25.9071
G1 F1500 X124.915 Y82.206 E26.1602
G1 F3600 E22.1602
G0 F9000 X124.349 Y82.206
G1 F3000 E26.1602
G1 F1500 X130.295 Y88.151 E26.4398
G1 F3600 E22.4398
G0 F9000 X130.295 Y88.717
G1 F3000 E26.4398
G1 F1500 X123.783 Y82.206 E26.7461
G1 F3600 E22.7461
G0 F9000 X123.218 Y82.206
G1 F3000 E26.7461
G1 F1500 X130.295 Y89.282 E27.0790
G1 F3600 E23.0790
G0 F9000 X130.295 Y89.848
G1 F3000 E27.0790
G1 F1500 X122.653 Y82.206 E27.4384
G1 F3600 E23.4384
G0 F9000 X122.087 Y82.206
G1 F3000 E27.4384
G1 F1500 X130.295 Y90.414 E27.8245
G1 F3600 E23.8245
G0 F9000 X130.295 Y90.979
G1 F3000 E27.8245
G1 F1500 X121.521 Y82.206 E28.2372
G1 F3600 E24.2372
G0 F9000 X120.956 Y82.206
G1 F3000 E28.2372
G1 F1500 X130.295 Y91.545 E28.6765
G1 F3600 E24.6765
G0 F9000 X130.295 Y92.111
G1 F3000 E28.6765
G1 F1500 X120.390 Y82.206 E29.1424
G1 F3600 E25.1424
G0 F9000 X119.824 Y82.206
G1 F3000 E29.1424
G1 F1500 X130.295 Y92.676 E29.6349
G1 F3600 E25.6349
G0 F9000 X130.295 Y93.242
G1 F3000 E29.6349
G1 F1500 X119.259 Y82.206 E30.1540
G1 F3600 E26.1540
G0 F9000 X118.693 Y82.206
G1 F3000 E30.1540
G1 F1500 X130.295 Y93.808 E30.6997
G1 F3600 E26.6997
G0 F9000 X130.295 Y94.374
G1 F3000 E30.6997
G1 F1500 X118.127 Y82.206 E31.2720
G1 F3600 E27.2720
G0 F9000 X117.562 Y82.206
G1 F3000 E31.2720
G1 F1500 X130.295 Y94.939 E31.8710
G1 F3600 E27.8710
G0 F9000 X130.295 Y95.505
G1 F3000 E31.8710
G1 F1500 X116.996 Y82.206 E32.4965
G1 F3600 E28.4965
G0 F9000 X116.430 Y82.206
G1 F3000 E32.4965
G1 F1500 X130.295 Y96.071 E33.1487
G1 F3600 E29.1487
G0 F9000 X130.295 Y96.636
G1 F3000 E33.1487
G1 F1500 X115.865 Y82.207 E33.8274
G1 F3600 E29.8274
G0 F9000 X115.300 Y82.207
G1 F3000 E33.8274
G1 F1500 X130.295 Y97.202 E34.5327
G1 F3600 E30.5327
G0 F9000 X130.295 Y97.768
G1 F3000 E34.5327
G1 F1500 X114.734 Y82.207 E35.2647
G1 F3600 E31.2647
G0 F9000 X114.168 Y82.207
G1 F3000 E35.2647
G1 F1500 X130.295 Y98.333 E36.0232
G1 F3600 E32.0232
G0 F9000 X130.295 Y98.899
G1 F3000 E36.0232
G1 F1500 X113.603 Y82.207 E36.8083
G1 F3600 E32.8083
G0 F9000 X113.037 Y82.207
G1 F3000 E36.8083
G1 F1500 X130.295 Y99.465 E37.6201
G1 F3600 E33.6201
G0 F9000 X130.295 Y100.030
G1 F3000 E37.6201
G1 F1500 X112.471 Y82.207 E38.4585
G1 F3600 E34.4585
G0 F9000 X111.906 Y82.207
G1 F3000 E38.4585
G1 F1500 X130.295 Y100.596 E39.3234
G1 F3600 E35.3234
G0 F9000 X130.295 Y101.162
G1 F3000 E39.3234
G1 F1500 X111.340 Y82.207 E40.2150
G1 F3600 E36.2150
G0 F9000 X110.774 Y82.207
G1 F3000 E40.2150
G1 F1500 X130.295 Y101.727 E41.1332
G1 F3600 E37.1332
G0 F9000 X130.295 Y102.293
G1 F3000 E41.1332
G1 F1500 X110.208 Y82.207 E42.0780
G1 F3600 E38.0780
G0 F9000 X109.643 Y82.207
G1 F3000 E42.0780
G1 F1500 X130.295 Y102.859 E43.0494
G1 F3600 E39.0494
G0 F9000 X130.295 Y103.424
G1 F3000 E43.0494
G1 F1500 X109.077 Y82.207 E44.0474
G1 F3600 E40.0474
G0 F9000 X108.512 Y82.208
G1 F3000 E44.0474
G1 F1500 X130.295 Y103.990 E45.0720
G1 F3600 E41.0720
G0 F9000 X130.295 Y104.556
G1 F3000 E45.0720
G1 F1500 X107.946 Y82.208 E46.1232
G1 F3600 E42.1232
G0 F9000 X107.381 Y82.208
G1 F3000 E46.1232
G1 F1500 X130.295 Y105.122 E47.2010
G1 F3600 E43.2010
G0 F9000 X130.295 Y105.687
G1 F3000 E47.2010
G1 F1500 X106.815 Y82.208 E48.3054
G1 F3600 E44.3054
G0 F9000 X106.249 Y82.208
G1 F3000 E48.3054
G1 F1500 X130.295 Y106.253 E49.4364
G1 F3600 E45.4364
G0 F9000 X130.295 Y106.819
G1 F3000 E49.4364
G1 F1500 X105.684 Y82.208 E50.5941
G1 F3600 E46.5941
G0 F9000 X105.118 Y82.208
G1 F3000 E50.5941
G1 F1500 X130.295 Y107.384 E51.7783
G1 F3600 E47.7783
G0 F9000 X130.295 Y107.951
G1 F3000 E51.7783
G1 F1500 X104.552 Y82.208 E52.9892
G1 F3600 E48.9892
G0 F9000 X103.987 Y82.208
G1 F3000 E52.9892
G1 F1500 X130.295 Y108.516 E54.2266
G1 F3600 E50.2266
G0 F9000 X130.295 Y109.082
G1 F3000 E54.2266
G1 F1500 X103.421 Y82.208 E55.4907
G1 F3600 E51.4907
G0 F9000 X102.855 Y82.208
G1 F3000 E55.4907
G1 F1500 X130.295 Y109.648 E56.7814
G1 F3600 E52.7814
G0 F9000 X130.295 Y110.213
G1 F3000 E56.7814
G1 F1500 X102.290 Y82.208 E58.0986
G1 F3600 E54.0986
G0 F9000 X101.725 Y82.208
G1 F3000 E58.0986
G1 F1500 X130.295 Y110.779 E59.4425
G1 F3600 E55.4425
G0 F9000 X130.295 Y111.345
G1 F3000 E59.4425
G1 F1500 X101.159 Y82.208 E60.8130
G1 F3600 E56.8130
G0 F9000 X100.593 Y82.208
G1 F3000 E60.8130
G1 F1500 X130.295 Y111.910 E62.2101
G1 F3600 E58.2101
G0 F9000 X130.295 Y112.476
G1 F3000 E62.2101
G1 F1500 X100.028 Y82.208 E63.6338
G1 F3600 E59.6338
G0 F9000 X99.462 Y82.208
G1 F3000 E63.6338
G1 F1500 X130.295 Y113.042 E65.0841
G1 F3600 E61.0841
G0 F9000 X130.295 Y113.608
G1 F3000 E65.0841
G1 F1500 X98.896 Y82.208 E66.5610
G1 F3600 E62.5610
G0 F9000 X98.330 Y82.208
G1 F3000 E66.5610
G1 F1500 X130.295 Y114.173 E68.0646
G1 F3600 E64.0646
G0 F9000 X130.295 Y114.739
G1 F3000 E68.0646
G1 F1500 X97.765 Y82.208 E69.5947
G1 F3600 E65.5947
G0 F9000 X97.199 Y82.208
G1 F3000 E69.5947
G1 F1500 X130.295 Y115.305 E71.1515
G1 F3600 E67.1515
G0 F9000 X130.295 Y115.870
G1 F3000 E71.1515
G1 F1500 X96.633 Y82.208 E72.7348
G1 F3600 E68.7348
G0 F9000 X96.068 Y82.208
G1 F3000 E72.7348
G1 F1500 X130.295 Y116.436 E74.3448
G1 F3600 E70.3448
G0 F9000 X130.295 Y117.002
G1 F3000 E74.3448
G1 F1500 X95.502 Y82.208 E75.9814
G1 F3600 E71.9814
G0 F9000 X94.936 Y82.208
G1 F3000 E75.9814
G1 F1500 X130.295 Y117.567 E77.6445
G1 F3600 E73.6445
G0 F9000 X130.295 Y118.133
G1 F3000 E77.6445
G1 F1500 X94.703 Y82.541 E79.3187
G1 F3600 E75.3187
G0 F9000 X94.703 Y83.106
G1 F3000 E79.3187
G1 F1500 X130.295 Y118.699 E80.9928
G1 F3600 E76.9928
G0 F9000 X130.295 Y119.264
G1 F3000 E80.9928
G1 F1500 X94.703 Y83.672 E82.6670
G1 F3600 E78.6670
G0 F9000 X94.703 Y84.238
G1 F3000 E82.6670
G1 F1500 X130.295 Y119.830 E84.3411
G1 F3600 E80.3411
G0 F9000 X130.295 Y120.396
G1 F3000 E84.3411
G1 F1500 X94.703 Y84.804 E86.0152
G1 F3600 E82.0152
G0 F9000 X94.703 Y85.369
G1 F3000 E86.0152
G1 F1500 X130.295 Y120.961 E87.6894
G1 F3600 E83.6894
G0 F9000 X130.295 Y121.527
G1 F3000 E87.6894
G1 F1500 X94.703 Y85.935 E89.3635
G1 F3600 E85.3635
G0 F9000 X94.703 Y86.501
G1 F3000 E89.3635
G1 F1500 X130.295 Y122.093 E91.0377
G1 F3600 E87.0377
G0 F9000 X130.295 Y122.658
G1 F3000 E91.0377
G1 F1500 X94.703 Y87.066 E92.7118
G1 F3600 E88.7118
G0 F9000 X94.703 Y87.632
G1 F3000 E92.7118
G1 F1500 X130.295 Y123.224 E94.3859
G1 F3600 E90.3859
G0 F9000 X130.295 Y123.790
G1 F3000 E94.3859
G1 F1500 X94.703 Y88.198 E96.0601
G1 F3600 E92.0601
G0 F9000 X94.704 Y88.764
G1 F3000 E96.0601
G1 F1500 X130.295 Y124.356 E97.7342
G1 F3600 E93.7342
G0 F9000 X130.295 Y124.921
G1 F3000 E97.7342
G1 F1500 X94.704 Y89.330 E99.4083
G1 F3600 E95.4083
G0 F9000 X94.704 Y89.895
G1 F3000 E99.4083
G1 F1500 X130.295 Y125.487 E101.0824
G1 F3600 E97.0824
G0 F9000 X130.295 Y126.053
G1 F3000 E101.0824
G1 F1500 X94.704 Y90.461 E102.7565
G1 F3600 E98.7565
G0 F9000 X94.704 Y91.027
G1 F3000 E102.7565
G1 F1500 X130.295 Y126.618 E104.4306
G1 F3600 E100.4306
G0 F9000 X130.295 Y127.184
G1 F3000 E104.4306
G1 F1500 X94.704 Y91.592 E106.1047
G1 F3600 E102.1047
G0 F9000 X94.704 Y92.158
G1 F3000 E106.1047
G1 F1500 X130.295 Y127.750 E107.7788
G1 F3600 E103.7788
G0 F9000 X130.295 Y128.315
G1 F3000 E107.7788
G1 F1500 X94.704 Y92.724 E109.4529
G1 F3600 E105.4529
G0 F9000 X94.704 Y93.290
G1 F3000 E109.4529
G1 F1500 X130.295 Y128.881 E111.1270
G1 F3600 E107.1270
G0 F9000 X130.295 Y129.447
G1 F3000 E111.1270
G1 F1500 X94.704 Y93.855 E112.8011
G1 F3600 E108.8011
G0 F9000 X94.704 Y94.421
G1 F3000 E112.8011
G1 F1500 X130.295 Y130.012 E114.4752
G1 F3600 E110.4752
G0 F9000 X130.295 Y130.578
G1 F3000 E114.4752
G1 F1500 X94.704 Y94.987 E116.1493
G1 F3600 E112.1493
G0 F9000 X94.704 Y95.553
G1 F3000 E116.1493
G1 F1500 X130.295 Y131.144 E117.8234
G1 F3600 E113.8234
G0 F9000 X130.295 Y131.709
G1 F3000 E117.8234
G1 F1500 X94.704 Y96.119 E119.4975
G1 F3600 E115.4975
G0 F9000 X94.704 Y96.684
G1 F3000 E119.4975
G1 F1500 X130.295 Y132.275 E121.1716
G1 F3600 E117.1716
G0 F9000 X130.244 Y132.790
G1 F3000 E121.1716
G1 F1500 X94.704 Y97.250 E122.8433
G1 F3600 E118.8433
G0 F9000 X94.704 Y97.816
G1 F3000 E122.8433
G1 F1500 X129.679 Y132.790 E124.4884
G1 F3600 E120.4884
G0 F9000 X129.113 Y132.790
G1 F3000 E124.4884
G1 F1500 X94.704 Y98.381 E126.1068
G1 F3600 E122.1068
G0 F9000 X94.704 Y98.947
G1 F3000 E126.1068
G1 F1500 X128.547 Y132.790 E127.6987
G1 F3600 E123.6987
G0 F9000 X127.982 Y132.790
G1 F3000 E127.6987
G1 F1500 X94.704 Y99.513 E129.2640
G1 F3600 E125.2640
G0 F9000 X94.704 Y100.078
G1 F3000 E129.2640
G1 F1500 X127.416 Y132.790 E130.8027
G1 F3600 E126.8027
G0 F9000 X126.850 Y132.790
G1 F3000 E130.8027
G1 F1500 X94.704 Y100.644 E132.3147
G1 F3600 E128.3147
G0 F9000 X94.705 Y101.211
G1 F3000 E132.3147
G1 F1500 X126.285 Y132.790 E133.8001
G1 F3600 E129.8001
G0 F9000 X125.719 Y132.790
G1 F3000 E133.8001
G1 F1500 X94.705 Y101.776 E135.2589
G1 F3600 E131.2589
G0 F9000 X94.705 Y102.342
G1 F3000 E135.2589
G1 F1500 X125.154 Y132.791 E136.6911
G1 F3600 E132.6911
G0 F9000 X124.588 Y132.791
G1 F3000 E136.6911
G1 F1500 X94.705 Y102.908 E138.0968
G1 F3600 E134.0968
G0 F9000 X94.705 Y103.473
G1 F3000 E138.0968
G1 F1500 X124.022 Y132.791 E139.4758
G1 F3600 E135.4758
G0 F9000 X123.457 Y132.791
G1 F3000 E139.4758
G1 F1500 X94.705 Y104.039 E140.8282
G1 F3600 E136.8282
G0 F9000 X94.705 Y104.605
G1 F3000 E140.8282
G1 F1500 X122.891 Y132.791 E142.1539
G1 F3600 E138.1539
G0 F9000 X122.325 Y132.791
G1 F3000 E142.1539
G1 F1500 X94.705 Y105.170 E143.4531
G1 F3600 E139.4531
G0 F9000 X94.705 Y105.736
G1 F3000 E143.4531
G1 F1500 X121.760 Y132.791 E144.7257
G1 F3600 E140.7257
G0 F9000 X121.194 Y132.791
G1 F3000 E144.7257
G1 F1500 X94.705 Y106.302 E145.9717
G1 F3600 E141.9717
G0 F9000 X94.705 Y106.867
G1 F3000 E145.9717
G1 F1500 X120.628 Y132.791 E147.1910
G1 F3600 E143.1910
G0 F9000 X120.063 Y132.791
G1 F3000 E147.1910
G1 F1500 X94.705 Y107.433 E148.3838
G1 F3600 E144.3838
G0 F9000 X94.706 Y107.999
G1 F3000 E148.3838
G1 F1500 X119.498 Y132.791 E149.5499
G1 F3600 E145.5499
G0 F9000 X118.932 Y132.791
G1 F3000 E149.5499
G1 F1500 X94.706 Y108.565 E150.6895
G1 F3600 E146.6895
G0 F9000 X94.706 Y109.131
G1 F3000 E150.6895
