;Sliced by ideaMaker 4.2.2.5450, 2022-04-17 15:09:14 UTC+0200
;Dimension: 225.000 215.000 225.000 0.400
;Plate Shape: 0
;Origin Center: 0
;Extruder Offset #1: 25.000 0.000
;Filament Diameter #1: 1.750
;Filament Diameter #2: 1.750
;Filament Compensation #1: 97.00
;Filament Compensation #2: 100.00
;Filament Density #1: 1240.00
;Filament Density #2: 1240.00
;Bounding Box: 14.606 210.394 20.317 194.684 0.000 4.000
;Model Gap: 0.000
M221 T0 S97.00
M140 S62.00
M104 T0 S220.00
M109 T0 S220.00
T0
M190 S62.00
M900 K0.95
G28 ; Home all axes
G92 E0 ; Reset Extruder
G1 Z2.0 F3000 ; Move Z Axis up little to prevent scratching of Heat Bed
G1 X0.1 Y20 Z0.3 F5000.0 ; Move to start position
G1 X0.1 Y200.0 Z0.3 F1500.0 E15 ; Draw the first line
G1 X0.4 Y200.0 Z0.3 F5000.0 ; Move to side a little
G1 X0.4 Y20 Z0.3 F1500.0 E30 ; Draw the second line
G92 E0 ; Reset Extruder
G1 Z2.0 F3000 ; Move Z Axis up little to prevent scratching of Heat Bed
;TOTAL_NUM: 1
;PRINTING_TIME: 0
;REMAINING_TIME: 13966
;LAYER:0
;Z:0.200
;HEIGHT:0.200
M106 S0
;PRINTING: NON-OBJECT
;PRINTING_ID: -1
G1 F3600 E-4.0000
G0 F9000 X35.096 Y48.088
G0 F1500 Z0.200
G0 F9000 X35.154 Y48.168
;TYPE:SKIRT
;WIDTH:0.400
G1 F3000 E0.0000
G1 F1500 X37.073 Y46.753 E0.0793
G1 X39.052 Y45.427 E0.1585
G1 X41.089 Y44.191 E0.2378
G1 X43.180 Y43.048 E0.3170
G1 X45.189 Y42.061 E0.3915
G1 X47.505 Y41.050 E0.4755
G1 X49.730 Y40.199 E0.5548
G1 X51.975 Y39.454 E0.6334
G1 X54.284 Y38.804 E0.7132
G1 X56.603 Y38.260 E0.7924
G1 X58.946 Y37.821 E0.8717
G1 X61.304 Y37.489 E0.9509
G1 X63.514 Y37.275 E1.0248
G1 X65.912 Y37.148 E1.1047
G1 X68.438 Y37.132 E1.1887
G1 X70.675 Y37.219 E1.2631
G1 X73.194 Y37.431 E1.3472
G1 X75.556 Y37.741 E1.4264
G1 X77.890 Y38.155 E1.5053
G1 X80.335 Y38.706 E1.5886
G1 X82.526 Y39.302 E1.6642
G1 X84.641 Y39.977 E1.7380
G1 X85.884 Y40.434 E1.7821
G1 X86.185 Y39.859 E1.8036
G1 X87.139 Y38.231 E1.8664
G1 X88.373 Y36.369 E1.9407
G1 X89.605 Y34.716 E2.0093
G1 X90.796 Y33.282 E2.0713
G1 X92.193 Y31.769 E2.1398
G1 X93.816 Y30.198 E2.2149
G1 X95.375 Y28.853 E2.2834
G1 X96.865 Y27.697 E2.3461
G1 X98.557 Y26.520 E2.4146
G1 X100.311 Y25.435 E2.4832
G1 X102.284 Y24.367 E2.5579
G1 X104.226 Y23.458 E2.6292
G1 X105.887 Y22.779 E2.6889
G1 X107.998 Y22.047 E2.7632
G1 X109.981 Y21.484 E2.8317
G1 X111.989 Y21.030 E2.9002
G1 X113.848 Y20.710 E2.9629
G1 X115.894 Y20.466 E3.0315
G1 X118.127 Y20.328 E3.1059
G1 X120.186 Y20.317 E3.1744
G1 X122.222 Y20.417 E3.2422
G1 X124.295 Y20.633 E3.3115
G1 X126.328 Y20.957 E3.3800
G1 X128.174 Y21.351 E3.4427
G1 X130.340 Y21.939 E3.5174
G1 X132.374 Y22.620 E3.5887
G1 X134.202 Y23.342 E3.6541
G1 X136.057 Y24.191 E3.7220
G1 X137.899 Y25.160 E3.7912
G1 X139.521 Y26.124 E3.8539
G1 X141.216 Y27.255 E3.9217
G1 X142.962 Y28.568 E3.9944
G1 X144.447 Y29.812 E4.0588
G1 X146.009 Y31.275 E4.1300
G1 X147.570 Y29.833 E4.2007
G1 X149.153 Y28.524 E4.2690
G1 X150.664 Y27.402 E4.3316
G1 X152.526 Y26.169 E4.4059
G1 X154.300 Y25.135 E4.4742
G1 X155.954 Y24.282 E4.5361
G1 X157.986 Y23.369 E4.6102
G1 X159.907 Y22.633 E4.6786
G1 X161.717 Y22.046 E4.7419
G1 X163.872 Y21.475 E4.8160
G1 X165.866 Y21.065 E4.8837
G1 X167.747 Y20.780 E4.9470
G1 X169.968 Y20.565 E5.0212
G1 X172.020 Y20.484 E5.0895
G1 X173.880 Y20.506 E5.1514
G1 X176.125 Y20.655 E5.2262
G1 X177.994 Y20.881 E5.2888
G1 X180.169 Y21.265 E5.3623
G1 X182.200 Y21.744 E5.4317
G1 X184.093 Y22.301 E5.4973
G1 X186.080 Y22.999 E5.5674
G1 X188.000 Y23.796 E5.6365
G1 X189.698 Y24.609 E5.6991
G1 X191.640 Y25.671 E5.7727
G1 X193.474 Y26.818 E5.8447
G1 X195.080 Y27.944 E5.9099
G1 X196.547 Y29.089 E5.9718
G1 X198.117 Y30.452 E6.0410
G1 X199.716 Y32.008 E6.1152
G1 X201.103 Y33.521 E6.1835
G1 X202.410 Y35.109 E6.2519
G1 X203.629 Y36.765 E6.3203
G1 X204.754 Y38.484 E6.3886
G1 X205.786 Y40.263 E6.4570
G1 X206.635 Y41.919 E6.5189
G1 X207.585 Y44.062 E6.5968
G1 X208.280 Y45.895 E6.6620
G1 X208.856 Y47.687 E6.7247
G1 X209.423 Y49.846 E6.7989
G1 X209.831 Y51.860 E6.8672
G1 X210.129 Y53.893 E6.9356
G1 X210.317 Y55.941 E7.0040
G1 X210.394 Y57.995 E7.0724
G1 X210.359 Y60.047 E7.1406
G1 X210.230 Y61.926 E7.2033
G1 X209.940 Y64.233 E7.2806
G1 X209.588 Y66.162 E7.3458
G1 X209.156 Y67.994 E7.4084
G1 X208.534 Y70.111 E7.4818
G1 X207.907 Y71.885 E7.5444
G1 X207.003 Y74.050 E7.6224
G1 X206.146 Y75.815 E7.6877
G1 X205.152 Y77.613 E7.7560
G1 X204.060 Y79.358 E7.8245
G1 X202.877 Y81.037 E7.8928
G1 X201.604 Y82.652 E7.9612
G1 X200.362 Y84.067 E8.0238
G1 X198.737 Y85.723 E8.1010
G1 X197.436 Y86.918 E8.1597
G1 X84.154 Y185.392 E13.1521
G1 X82.492 Y186.755 E13.2236
G1 X80.979 Y187.868 E13.2860
G1 X79.263 Y188.998 E13.3544
G1 X77.336 Y190.115 E13.4284
G1 X75.503 Y191.044 E13.4968
G1 X73.627 Y191.871 E13.5650
G1 X71.890 Y192.532 E13.6268
G1 X69.748 Y193.215 E13.7016
G1 X67.760 Y193.729 E13.7699
G1 X65.745 Y194.134 E13.8382
G1 X63.715 Y194.427 E13.9064
G1 X61.670 Y194.613 E13.9747
G1 X59.813 Y194.684 E14.0366
G1 X57.763 Y194.657 E14.1047
G1 X55.691 Y194.516 E14.1738
G1 X53.503 Y194.243 E14.2472
G1 X51.453 Y193.868 E14.3165
G1 X49.375 Y193.365 E14.3876
G1 X47.499 Y192.806 E14.4527
G1 X45.728 Y192.178 E14.5152
G1 X43.851 Y191.401 E14.5828
G1 X41.824 Y190.423 E14.6576
G1 X40.029 Y189.428 E14.7259
G1 X38.288 Y188.337 E14.7942
G1 X36.610 Y187.152 E14.8625
G1 X35.000 Y185.880 E14.9308
G1 X33.604 Y184.655 E14.9925
G1 X32.134 Y183.225 E15.0608
G1 X30.612 Y181.565 E15.1357
G1 X29.312 Y179.976 E15.2039
G1 X28.102 Y178.320 E15.2722
G1 X27.084 Y176.765 E15.3340
G1 X26.050 Y174.992 E15.4022
G1 X25.028 Y172.989 E15.4770
G1 X24.275 Y171.290 E15.5388
G1 X23.449 Y169.099 E15.6167
G1 X22.859 Y167.231 E15.6819
G1 X22.386 Y165.413 E15.7444
G1 X21.977 Y163.423 E15.8119
G1 X21.670 Y161.371 E15.8809
G1 X21.465 Y159.152 E15.9551
G1 X21.392 Y157.098 E16.0234
G1 X21.432 Y155.041 E16.0918
G1 X21.592 Y152.906 E16.1631
G1 X21.841 Y150.963 E16.2282
G1 X22.172 Y149.135 E16.2900
G1 X22.646 Y147.116 E16.3590
G1 X23.273 Y144.995 E16.4325
G1 X24.005 Y142.962 E16.5044
G1 X24.694 Y141.313 E16.5638
G1 X25.584 Y139.462 E16.6322
G1 X26.659 Y137.514 E16.7062
G1 X27.655 Y135.919 E16.7687
G1 X28.936 Y134.097 E16.8428
G1 X30.210 Y132.485 E16.9111
G1 X31.553 Y130.962 E16.9787
G1 X32.670 Y129.826 E17.0316
G1 X32.347 Y129.549 E17.0458
G1 X30.602 Y127.925 E17.1251
G1 X28.933 Y126.226 E17.2043
G1 X27.341 Y124.452 E17.2836
G1 X25.831 Y122.609 E17.3628
G1 X24.407 Y120.700 E17.4420
G1 X23.158 Y118.865 E17.5159
G1 X21.896 Y116.824 E17.5957
G1 X20.734 Y114.742 E17.6750
G1 X19.676 Y112.628 E17.7536
G1 X18.644 Y110.302 E17.8382
G1 X17.836 Y108.233 E17.9121
G1 X17.023 Y105.841 E17.9961
G1 X16.357 Y103.527 E18.0762
G1 X15.810 Y101.244 E18.1543
G1 X15.351 Y98.879 E18.2344
G1 X15.004 Y96.514 E18.3139
G1 X14.760 Y94.057 E18.3961
G1 X14.638 Y91.916 E18.4674
G1 X14.606 Y89.534 E18.5466
G1 X14.682 Y87.152 E18.6259
G1 X14.892 Y84.521 E18.7137
G1 X15.173 Y82.287 E18.7886
G1 X15.578 Y79.921 E18.8684
G1 X16.085 Y77.594 E18.9476
G1 X16.652 Y75.447 E19.0215
G1 X17.360 Y73.172 E19.1007
G1 X18.170 Y70.932 E19.1799
G1 X19.145 Y68.582 E19.2646
G1 X20.160 Y66.425 E19.3439
G1 X21.271 Y64.316 E19.4231
G1 X22.474 Y62.263 E19.5023
G1 X23.770 Y60.261 E19.5816
G1 X25.155 Y58.322 E19.6609
G1 X26.625 Y56.448 E19.7401
G1 X28.179 Y54.641 E19.8193
G1 X29.812 Y52.906 E19.8986
G1 X31.508 Y51.259 E19.9772
G1 X33.304 Y49.666 E20.0571
G1 X35.077 Y48.230 E20.1330
G0 F1500 X35.154 Y48.168
G1 F3600 E16.1330
G0 F9000 X35.392 Y48.490
G1 F3000 E20.1330
G1 F1500 X37.296 Y47.085 E20.2117
G1 X39.260 Y45.769 E20.2903
G1 X41.281 Y44.542 E20.3689
G1 X43.356 Y43.407 E20.4476
G1 X45.349 Y42.428 E20.5214
G1 X47.648 Y41.424 E20.6049
G1 X49.856 Y40.579 E20.6835
G1 X52.101 Y39.834 E20.7622
G1 X54.375 Y39.193 E20.8408
G1 X56.677 Y38.653 E20.9194
G1 X59.002 Y38.217 E20.9981
G1 X61.343 Y37.887 E21.0767
G1 X63.553 Y37.673 E21.1506
G1 X65.915 Y37.548 E21.2292
G1 X68.423 Y37.532 E21.3127
G1 X70.642 Y37.618 E21.3865
G1 X73.142 Y37.828 E21.4700
G1 X75.486 Y38.135 E21.5486
G1 X77.820 Y38.549 E21.6274
G1 X80.230 Y39.092 E21.7096
G1 X82.404 Y39.683 E21.7845
G1 X84.519 Y40.358 E21.8584
G1 X86.077 Y40.930 E21.9136
G1 X86.530 Y40.061 E21.9462
G1 X87.473 Y38.452 E22.0082
G1 X88.694 Y36.608 E22.0817
G1 X89.913 Y34.972 E22.1496
G1 X91.104 Y33.538 E22.2116
G1 X92.487 Y32.040 E22.2794
G1 X94.077 Y30.501 E22.3530
G1 X95.620 Y29.169 E22.4208
G1 X97.093 Y28.025 E22.4828
G1 X98.767 Y26.860 E22.5507
G1 X100.502 Y25.787 E22.6185
G1 X102.454 Y24.729 E22.6924
G1 X104.377 Y23.828 E22.7630
G1 X106.018 Y23.157 E22.8220
G1 X108.107 Y22.432 E22.8955
G1 X110.069 Y21.874 E22.9634
G1 X112.057 Y21.424 E23.0312
G1 X113.895 Y21.107 E23.0932
G1 X115.919 Y20.865 E23.1610
G1 X118.129 Y20.728 E23.2346
G1 X120.166 Y20.717 E23.3024
G1 X122.202 Y20.817 E23.3702
G1 X124.232 Y21.028 E23.4381
G1 X126.245 Y21.348 E23.5059
G1 X128.069 Y21.737 E23.5679
G1 X130.213 Y22.318 E23.6418
G1 X132.227 Y22.992 E23.7124
G1 X134.036 Y23.706 E23.7771
G1 X135.891 Y24.555 E23.8450
G1 X137.695 Y25.504 E23.9127
G1 X139.299 Y26.457 E23.9748
G1 X140.994 Y27.588 E24.0426
G1 X142.705 Y28.875 E24.1138
G1 X144.190 Y30.119 E24.1782
G1 X145.680 Y31.510 E24.2460
G1 X146.008 Y31.846 E24.2616
G1 X146.331 Y31.518 E24.2769
G1 X147.825 Y30.141 E24.3445
G1 X149.392 Y28.845 E24.4122
G1 X150.885 Y27.735 E24.4740
G1 X152.727 Y26.515 E24.5475
G1 X154.483 Y25.491 E24.6151
G1 X156.137 Y24.638 E24.6770
G1 X158.150 Y23.734 E24.7504
G1 X160.050 Y23.007 E24.8181
G1 X161.820 Y22.433 E24.8800
G1 X163.953 Y21.867 E24.9534
G1 X165.947 Y21.457 E25.0211
G1 X167.786 Y21.178 E25.0829
G1 X169.984 Y20.965 E25.1564
G1 X172.015 Y20.884 E25.2240
G1 X173.875 Y20.906 E25.2859
G1 X176.077 Y21.052 E25.3593
G1 X177.924 Y21.275 E25.4211
G1 X180.099 Y21.659 E25.4946
G1 X182.087 Y22.128 E25.5625
G1 X183.960 Y22.678 E25.6275
G1 X185.947 Y23.376 E25.6975
G1 X187.827 Y24.157 E25.7652
G1 X189.506 Y24.960 E25.8271
G1 X191.448 Y26.022 E25.9007
G1 X193.245 Y27.146 E25.9712
G1 X194.834 Y28.259 E26.0358
G1 X196.301 Y29.404 E26.0977
G1 X197.838 Y30.739 E26.1654
G1 X199.421 Y32.278 E26.2388
G1 X200.794 Y33.775 E26.3064
G1 X202.088 Y35.346 E26.3741
G1 X203.294 Y36.984 E26.4417
G1 X204.408 Y38.685 E26.5093
G1 X205.430 Y40.445 E26.5770
G1 X206.279 Y42.101 E26.6389
G1 X207.211 Y44.204 E26.7154
G1 X207.899 Y46.018 E26.7800
G1 X208.469 Y47.789 E26.8418
G1 X209.031 Y49.925 E26.9153
G1 X209.435 Y51.918 E26.9829
G1 X209.731 Y53.930 E27.0506
G1 X209.917 Y55.956 E27.1182
G1 X209.994 Y57.988 E27.1859
G1 X209.960 Y60.020 E27.2535
G1 X209.833 Y61.876 E27.3153
G1 X209.546 Y64.161 E27.3919
G1 X209.199 Y66.070 E27.4565
G1 X208.772 Y67.881 E27.5184
G1 X208.150 Y69.998 E27.5918
G1 X207.530 Y71.752 E27.6536
G1 X206.643 Y73.875 E27.7302
G1 X205.796 Y75.622 E27.7947
G1 X204.813 Y77.401 E27.8623
G1 X203.733 Y79.128 E27.9301
G1 X202.563 Y80.789 E27.9977
G1 X201.303 Y82.388 E28.0654
G1 X200.076 Y83.787 E28.1273
G1 X198.466 Y85.428 E28.2037
G1 X197.165 Y86.623 E28.2625
G1 X83.892 Y185.090 E33.2544
G1 X82.255 Y186.433 E33.3249
G1 X80.759 Y187.534 E33.3866
G1 X79.062 Y188.652 E33.4542
G1 X77.155 Y189.758 E33.5276
G1 X75.342 Y190.678 E33.5952
G1 X73.485 Y191.497 E33.6627
G1 X71.748 Y192.158 E33.7245
G1 X69.648 Y192.828 E33.7978
G1 X67.681 Y193.337 E33.8654
G1 X65.688 Y193.738 E33.9330
G1 X63.679 Y194.029 E34.0005
G1 X61.655 Y194.213 E34.0681
G1 X59.798 Y194.284 E34.1299
G1 X57.768 Y194.257 E34.1974
G1 X55.741 Y194.119 E34.2650
G1 X53.553 Y193.846 E34.3384
G1 X51.547 Y193.479 E34.4062
G1 X49.489 Y192.982 E34.4766
G1 X47.633 Y192.429 E34.5410
G1 X45.881 Y191.808 E34.6028
G1 X44.004 Y191.031 E34.6704
G1 X42.018 Y190.073 E34.7437
G1 X40.241 Y189.089 E34.8113
G1 X38.519 Y188.010 E34.8789
G1 X36.858 Y186.838 E34.9465
G1 X35.264 Y185.579 E35.0141
G1 X33.868 Y184.354 E35.0758
G1 X32.413 Y182.938 E35.1434
G1 X30.922 Y181.312 E35.2167
G1 X29.635 Y179.740 E35.2843
G1 X28.437 Y178.101 E35.3518
G1 X27.419 Y176.546 E35.4137
G1 X26.396 Y174.791 E35.4812
G1 X25.394 Y172.827 E35.5545
G1 X24.641 Y171.128 E35.6164
G1 X23.830 Y168.978 E35.6928
G1 X23.246 Y167.130 E35.7572
G1 X22.778 Y165.332 E35.8190
G1 X22.369 Y163.342 E35.8866
G1 X22.068 Y161.334 E35.9541
G1 X21.865 Y159.138 E36.0275
G1 X21.792 Y157.106 E36.0951
G1 X21.831 Y155.071 E36.1628
G1 X21.989 Y152.957 E36.2333
G1 X22.235 Y151.034 E36.2978
G1 X22.566 Y149.206 E36.3596
G1 X23.030 Y147.229 E36.4271
G1 X23.657 Y145.108 E36.5007
G1 X24.374 Y143.116 E36.5711
G1 X25.055 Y141.486 E36.6299
G1 X25.934 Y139.655 E36.6974
G1 X26.998 Y137.726 E36.7707
G1 X27.982 Y136.149 E36.8325
G1 X29.250 Y134.345 E36.9059
G1 X30.510 Y132.750 E36.9735
G1 X31.853 Y131.227 E37.0410
G1 X33.255 Y129.800 E37.1075
G1 X32.619 Y129.256 E37.1354
G1 X30.887 Y127.645 E37.2141
G1 X29.231 Y125.959 E37.2927
G1 X27.650 Y124.199 E37.3713
G1 X26.152 Y122.370 E37.4500
G1 X24.738 Y120.475 E37.5286
G1 X23.489 Y118.640 E37.6024
G1 X22.245 Y116.629 E37.6811
G1 X21.092 Y114.563 E37.7598
G1 X20.034 Y112.449 E37.8384
G1 X19.017 Y110.156 E37.9218
G1 X18.209 Y108.087 E37.9957
G1 X17.402 Y105.712 E38.0791
G1 X16.746 Y103.434 E38.1580
G1 X16.203 Y101.168 E38.2355
G1 X15.747 Y98.821 E38.3150
G1 X15.402 Y96.474 E38.3939
G1 X15.158 Y94.017 E38.4760
G1 X15.038 Y91.911 E38.5462
G1 X15.006 Y89.547 E38.6248
G1 X15.081 Y87.184 E38.7035
G1 X15.289 Y84.571 E38.7906
G1 X15.570 Y82.337 E38.8655
G1 X15.969 Y80.006 E38.9442
G1 X16.472 Y77.696 E39.0228
G1 X17.039 Y75.549 E39.0967
G1 X17.742 Y73.291 E39.1753
G1 X18.546 Y71.068 E39.2540
G1 X19.507 Y68.752 E39.3374
G1 X20.514 Y66.611 E39.4161
G1 X21.616 Y64.518 E39.4947
G1 X22.810 Y62.480 E39.5733
G1 X24.096 Y60.493 E39.6520
G1 X25.470 Y58.569 E39.7306
G1 X26.928 Y56.709 E39.8092
G1 X28.470 Y54.915 E39.8879
G1 X30.091 Y53.193 E39.9666
G1 X31.787 Y51.546 E40.0452
G1 X33.556 Y49.977 E40.1239
G1 X35.315 Y48.552 E40.1992
G0 F1500 X35.392 Y48.490
;PRINTING: back_plate.stl
;PRINTING_ID: 0
G1 F3600 E36.1992
G0 F9000 X37.653 Y51.545
;TYPE:WALL-INNER
;WIDTH:0.400
G1 F3000 E40.1992
G1 F1500 X39.431 Y50.229 E40.2727
G1 X41.244 Y49.010 E40.3454
G1 X43.133 Y47.860 E40.4190
G1 X45.047 Y46.810 E40.4916
G1 X47.008 Y45.847 E40.5642
G1 X49.027 Y44.965 E40.6375
G1 X51.076 Y44.178 E40.7105
G1 X53.146 Y43.488 E40.7831
G1 X55.265 Y42.887 E40.8563
G1 X57.390 Y42.386 E40.9290
G1 X59.552 Y41.977 E41.0021
G1 X61.729 Y41.667 E41.0753
G1 X63.906 Y41.456 E41.1480
G1 X66.092 Y41.344 E41.2208
G1 X68.280 Y41.330 E41.2936
G1 X70.482 Y41.415 E41.3669
G1 X72.672 Y41.600 E41.4400
G1 X74.844 Y41.881 E41.5128
G1 X77.011 Y42.261 E41.5860
G1 X79.245 Y42.762 E41.6622
G1 X81.256 Y43.307 E41.7315
G1 X83.357 Y43.977 E41.8048
G1 X85.405 Y44.733 E41.8774
G1 X87.983 Y45.820 E41.9705
G1 X88.976 Y43.602 E42.0513
G1 X89.820 Y41.963 E42.1126
G1 X90.741 Y40.392 E42.1732
G1 X91.758 Y38.855 E42.2345
G1 X92.837 Y37.401 E42.2947
G1 X94.021 Y35.975 E42.3563
G1 X95.270 Y34.628 E42.4174
G1 X96.575 Y33.364 E42.4779
G1 X97.959 Y32.164 E42.5388
G1 X99.407 Y31.039 E42.5998
G1 X100.910 Y29.997 E42.6606
G1 X102.473 Y29.036 E42.7216
G1 X104.099 Y28.154 E42.7832
G1 X105.834 Y27.337 E42.8469
G1 X107.426 Y26.686 E42.9042
G1 X109.187 Y26.075 E42.9662
G1 X110.917 Y25.578 E43.0260
G1 X112.726 Y25.164 E43.0877
G1 X114.522 Y24.854 E43.1484
G1 X116.341 Y24.641 E43.2093
G1 X118.175 Y24.528 E43.2704
G1 X119.994 Y24.514 E43.3309
G1 X121.848 Y24.601 E43.3926
G1 X123.657 Y24.784 E43.4531
G1 X125.471 Y25.069 E43.5142
G1 X127.265 Y25.451 E43.5752
G1 X129.014 Y25.924 E43.6354
G1 X130.871 Y26.542 E43.7005
G1 X132.461 Y27.164 E43.7573
G1 X134.159 Y27.937 E43.8194
G1 X135.758 Y28.773 E43.8794
G1 X137.348 Y29.718 E43.9409
G1 X138.862 Y30.732 E44.0015
G1 X140.387 Y31.886 E44.0651
G1 X141.725 Y33.011 E44.1233
G1 X143.079 Y34.282 E44.1850
G1 X144.330 Y35.590 E44.2452
G1 X145.989 Y37.527 E44.3301
G1 X147.653 Y35.609 E44.4145
G1 X148.913 Y34.306 E44.4748
G1 X150.254 Y33.064 E44.5356
G1 X151.685 Y31.875 E44.5975
G1 X153.139 Y30.795 E44.6577
G1 X154.667 Y29.783 E44.7187
G1 X156.225 Y28.869 E44.7787
G1 X157.872 Y28.020 E44.8404
G1 X159.532 Y27.274 E44.9009
G1 X161.250 Y26.612 E44.9621
G1 X162.971 Y26.054 E45.0223
G1 X164.733 Y25.587 E45.0829
G1 X166.544 Y25.210 E45.1445
G1 X168.338 Y24.938 E45.2048
G1 X170.147 Y24.762 E45.2653
G1 X171.995 Y24.684 E45.3268
