;Sliced by ideaMaker 4.2.2.5450, 2022-04-17 15:10:40 UTC+0200
;Dimension: 225.000 215.000 225.000 0.400
;Plate Shape: 0
;Origin Center: 0
;Extruder Offset #1: 25.000 0.000
;Filament Diameter #1: 1.750
;Filament Diameter #2: 1.750
;Filament Compensation #1: 97.00
;Filament Compensation #2: 100.00
;Filament Density #1: 1240.00
;Filament Density #2: 1240.00
;Bounding Box: 22.044 202.954 15.124 199.872 0.000 0.800
;Model Gap: 0.000
M221 T0 S97.00
M140 S62.00
M104 T0 S220.00
M109 T0 S220.00
T0
M190 S62.00
M900 K0.95
G28 ; Home all axes
G92 E0 ; Reset Extruder
G1 Z2.0 F3000 ; Move Z Axis up little to prevent scratching of Heat Bed
G1 X0.1 Y20 Z0.3 F5000.0 ; Move to start position
G1 X0.1 Y200.0 Z0.3 F1500.0 E15 ; Draw the first line
G1 X0.4 Y200.0 Z0.3 F5000.0 ; Move to side a little
G1 X0.4 Y20 Z0.3 F1500.0 E30 ; Draw the second line
G92 E0 ; Reset Extruder
G1 Z2.0 F3000 ; Move Z Axis up little to prevent scratching of Heat Bed
;TOTAL_NUM: 1
;PRINTING_TIME: 0
;REMAINING_TIME: 19582
;LAYER:0
;Z:0.200
;HEIGHT:0.200
M106 S0
;PRINTING: NON-OBJECT
;PRINTING_ID: -1
G1 F3600 E-4.0000
G0 F9000 X58.532 Y38.565
G0 F1500 Z0.200
G0 F9000 X58.615 Y38.620
;TYPE:SKIRT
;WIDTH:0.400
G1 F3000 E0.0000
G1 F1500 X59.777 Y36.850 E0.0704
G1 X61.211 Y34.868 E0.1518
G1 X62.623 Y33.100 E0.2270
G1 X64.138 Y31.370 E0.3035
G1 X65.718 Y29.725 E0.3794
G1 X67.262 Y28.252 E0.4504
G1 X68.980 Y26.751 E0.5262
G1 X70.881 Y25.242 E0.6070
G1 X72.734 Y23.909 E0.6829
G1 X74.627 Y22.673 E0.7581
G1 X76.480 Y21.576 E0.8297
G1 X78.624 Y20.434 E0.9105
G1 X80.668 Y19.467 E0.9857
G1 X82.652 Y18.633 E1.0573
G1 X84.775 Y17.849 E1.1326
G1 X86.970 Y17.150 E1.2092
G1 X89.574 Y16.466 E1.2987
G1 X91.524 Y16.042 E1.3651
G1 X93.789 Y15.656 E1.4415
G1 X95.890 Y15.392 E1.5120
G1 X98.181 Y15.206 E1.5884
G1 X100.608 Y15.124 E1.6692
G1 X102.725 Y15.149 E1.7396
G1 X105.166 Y15.288 E1.8209
G1 X107.434 Y15.525 E1.8968
G1 X109.546 Y15.841 E1.9678
G1 X111.928 Y16.308 E2.0485
G1 X114.002 Y16.815 E2.1195
G1 X116.173 Y17.447 E2.1947
G1 X118.503 Y18.247 E2.2767
G1 X120.852 Y19.189 E2.3608
G1 X122.541 Y19.946 E2.4224
G1 X124.595 Y20.977 E2.4988
G1 X126.695 Y22.157 E2.5790
G1 X128.643 Y23.377 E2.6554
G1 X130.402 Y24.588 E2.7264
G1 X132.322 Y26.044 E2.8066
G1 X134.086 Y27.518 E2.8830
G1 X135.662 Y28.957 E2.9540
G1 X137.278 Y30.568 E3.0299
G1 X138.818 Y32.250 E3.1058
G1 X140.373 Y34.117 E3.1866
G1 X141.746 Y35.934 E3.2623
G1 X142.958 Y37.692 E3.3333
G1 X143.898 Y39.193 E3.3923
G1 X144.403 Y38.727 E3.4151
G1 X145.756 Y37.597 E3.4737
G1 X147.452 Y36.332 E3.5441
G1 X149.067 Y35.267 E3.6085
G1 X150.588 Y34.374 E3.6671
G1 X152.467 Y33.407 E3.7374
G1 X154.218 Y32.627 E3.8012
G1 X155.884 Y31.988 E3.8605
G1 X157.894 Y31.342 E3.9307
G1 X159.598 Y30.895 E3.9893
G1 X161.477 Y30.507 E4.0531
G1 X163.591 Y30.195 E4.1242
G1 X165.346 Y30.034 E4.1828
G1 X167.261 Y29.960 E4.2466
G1 X169.417 Y30.001 E4.3183
G1 X171.388 Y30.158 E4.3841
G1 X173.076 Y30.372 E4.4406
G1 X174.985 Y30.722 E4.5052
G1 X177.095 Y31.242 E4.5775
G1 X178.726 Y31.731 E4.6341
G1 X180.713 Y32.453 E4.7044
G1 X182.471 Y33.208 E4.7681
G1 X184.071 Y33.996 E4.8274
G1 X185.915 Y35.035 E4.8978
G1 X187.562 Y36.094 E4.9629
G1 X189.290 Y37.355 E5.0341
G1 X190.623 Y38.437 E5.0912
G1 X192.044 Y39.722 E5.1549
G1 X193.303 Y40.986 E5.2142
G1 X194.696 Y42.548 E5.2838
G1 X195.807 Y43.942 E5.3431
G1 X196.934 Y45.519 E5.4076
G1 X198.064 Y47.308 E5.4780
G1 X199.003 Y49.004 E5.5424
G1 X199.765 Y50.569 E5.6003
G1 X200.594 Y52.538 E5.6714
G1 X201.240 Y54.362 E5.7357
G1 X201.742 Y56.051 E5.7944
G1 X202.232 Y58.110 E5.8647
G1 X202.544 Y59.844 E5.9233
G1 X202.787 Y61.766 E5.9878
G1 X202.933 Y63.878 E6.0582
G1 X202.954 Y65.813 E6.1226
G1 X202.883 Y67.552 E6.1804
G1 X202.678 Y69.679 E6.2515
G1 X202.413 Y71.421 E6.3101
G1 X202.025 Y73.297 E6.3738
G1 X201.468 Y75.382 E6.4456
G1 X200.842 Y77.258 E6.5114
G1 X200.228 Y78.845 E6.5680
G1 X199.433 Y80.610 E6.6324
G1 X198.454 Y82.486 E6.7028
G1 X197.554 Y84.001 E6.7614
G1 X196.376 Y85.757 E6.8317
G1 X195.206 Y87.302 E6.8962
G1 X193.952 Y88.781 E6.9606
G1 X192.621 Y90.187 E7.0250
G1 X191.295 Y91.447 E7.0859
G1 X80.921 Y190.828 E12.0258
G1 X79.377 Y192.138 E12.0931
G1 X77.835 Y193.305 E12.1574
G1 X76.228 Y194.389 E12.2219
G1 X74.567 Y195.379 E12.2862
G1 X73.030 Y196.191 E12.3440
G1 X71.275 Y197.005 E12.4084
G1 X69.288 Y197.790 E12.4794
G1 X67.429 Y198.402 E12.5445
G1 X65.385 Y198.943 E12.6149
G1 X63.689 Y199.302 E12.6725
G1 X61.773 Y199.600 E12.7370
G1 X60.023 Y199.778 E12.7955
G1 X58.114 Y199.872 E12.8591
G1 X55.978 Y199.855 E12.9301
G1 X54.221 Y199.744 E12.9887
G1 X52.126 Y199.496 E13.0589
G1 X50.393 Y199.194 E13.1174
G1 X48.504 Y198.761 E13.1818
G1 X46.665 Y198.232 E13.2455
G1 X44.649 Y197.525 E13.3165
G1 X42.865 Y196.782 E13.3808
G1 X41.297 Y196.031 E13.4386
G1 X39.578 Y195.094 E13.5037
G1 X37.785 Y193.977 E13.5740
G1 X36.201 Y192.860 E13.6385
G1 X34.700 Y191.673 E13.7021
G1 X33.363 Y190.497 E13.7613
G1 X31.995 Y189.160 E13.8250
G1 X30.554 Y187.581 E13.8961
G1 X29.336 Y186.080 E13.9604
G1 X28.300 Y184.657 E14.0189
G1 X27.244 Y183.037 E14.0832
G1 X26.193 Y181.201 E14.1536
G1 X25.330 Y179.469 E14.2179
G1 X24.562 Y177.691 E14.2824
G1 X23.893 Y175.873 E14.3468
G1 X23.326 Y174.025 E14.4111
G1 X22.898 Y172.319 E14.4696
G1 X22.530 Y170.440 E14.5333
G1 X22.240 Y168.323 E14.6043
G1 X22.099 Y166.571 E14.6628
G1 X22.044 Y164.637 E14.7271
G1 X22.105 Y162.524 E14.7975
G1 X22.273 Y160.595 E14.8619
G1 X22.545 Y158.679 E14.9262
G1 X22.879 Y156.973 E14.9840
G1 X23.349 Y155.097 E15.0484
G1 X23.929 Y153.225 E15.1135
G1 X24.670 Y151.246 E15.1838
G1 X25.376 Y149.636 E15.2423
G1 X26.244 Y147.908 E15.3066
G1 X27.196 Y146.245 E15.3703
G1 X28.362 Y144.456 E15.4414
G1 X29.510 Y142.899 E15.5057
G1 X30.627 Y141.539 E15.5643
G1 X31.933 Y140.109 E15.6287
G1 X33.444 Y138.632 E15.6989
G1 X34.888 Y137.376 E15.7626
G1 X36.290 Y136.280 E15.8218
G1 X37.127 Y135.691 E15.8558
G1 X36.463 Y134.936 E15.8893
G1 X35.377 Y133.566 E15.9474
G1 X34.262 Y131.999 E16.0114
G1 X33.157 Y130.239 E16.0805
G1 X32.218 Y128.535 E16.1452
G1 X31.382 Y126.804 E16.2091
G1 X30.713 Y125.212 E16.2666
G1 X30.053 Y123.380 E16.3313
G1 X29.463 Y121.388 E16.4004
G1 X29.058 Y119.687 E16.4586
G1 X28.706 Y117.773 E16.5233
G1 X28.446 Y115.692 E16.5931
G1 X28.315 Y113.772 E16.6571
G1 X28.288 Y112.023 E16.7153
G1 X28.357 Y110.123 E16.7785
G1 X28.585 Y107.815 E16.8556
G1 X28.844 Y106.110 E16.9130
G1 X29.236 Y104.224 E16.9771
G1 X29.731 Y102.366 E17.0410
G1 X30.325 Y100.538 E17.1050
G1 X30.943 Y98.925 E17.1624
G1 X31.723 Y97.168 E17.2263
G1 X32.610 Y95.434 E17.2911
G1 X33.567 Y93.791 E17.3544
G1 X34.723 Y92.040 E17.4241
G1 X35.779 Y90.617 E17.4831
G1 X37.107 Y89.019 E17.5522
G1 X38.434 Y87.598 E17.6169
G1 X39.820 Y86.264 E17.6808
G1 X41.142 Y85.119 E17.7390
G1 X42.642 Y83.951 E17.8022
G1 X44.238 Y82.840 E17.8669
G1 X45.860 Y81.841 E17.9303
G1 X47.724 Y80.833 E18.0008
G1 X49.467 Y80.015 E18.0648
G1 X51.252 Y79.295 E18.1288
G1 X52.821 Y78.764 E18.1839
G1 X52.627 Y78.091 E18.2072
G1 X52.124 Y76.016 E18.2782
G1 X51.662 Y73.634 E18.3589
G1 X51.332 Y71.379 E18.4347
G1 X51.117 Y69.273 E18.5051
G1 X50.985 Y66.975 E18.5817
G1 X50.960 Y64.549 E18.6624
G1 X51.043 Y62.268 E18.7383
G1 X51.231 Y59.997 E18.8141
G1 X51.497 Y57.897 E18.8845
G1 X51.915 Y55.487 E18.9658
G1 X52.371 Y53.420 E19.0363
G1 X52.966 Y51.198 E19.1128
G1 X53.702 Y48.886 E19.1935
G1 X54.496 Y46.746 E19.2694
G1 X55.385 Y44.648 E19.3452
G1 X56.296 Y42.736 E19.4156
G1 X57.448 Y40.577 E19.4970
G1 X58.564 Y38.705 E19.5695
G0 F1500 X58.615 Y38.620
G0 F9000 X58.949 Y38.840
G1 F1500 X60.111 Y37.070 E19.6399
G1 X61.524 Y35.118 E19.7201
G1 X62.936 Y33.350 E19.7953
G1 X64.427 Y31.647 E19.8706
G1 X65.994 Y30.014 E19.9459
G1 X67.525 Y28.553 E20.0163
G1 X69.229 Y27.064 E20.0915
G1 X71.115 Y25.567 E20.1716
G1 X72.953 Y24.244 E20.2469
G1 X74.846 Y23.008 E20.3221
G1 X76.668 Y21.929 E20.3926
G1 X78.795 Y20.796 E20.4727
G1 X80.839 Y19.829 E20.5479
G1 X82.791 Y19.008 E20.6183
G1 X84.914 Y18.224 E20.6936
G1 X87.072 Y17.537 E20.7689
G1 X89.659 Y16.857 E20.8579
G1 X91.609 Y16.433 E20.9243
G1 X93.839 Y16.053 E20.9995
G1 X95.940 Y15.789 E21.0700
G1 X98.195 Y15.606 E21.1452
G1 X100.603 Y15.524 E21.2253
G1 X102.720 Y15.549 E21.2958
G1 X105.124 Y15.686 E21.3758
G1 X107.375 Y15.921 E21.4511
G1 X109.469 Y16.234 E21.5215
G1 X111.833 Y16.697 E21.6017
G1 X113.890 Y17.199 E21.6721
G1 X116.061 Y17.831 E21.7473
G1 X118.354 Y18.618 E21.8279
G1 X120.688 Y19.554 E21.9116
G1 X122.377 Y20.311 E21.9731
G1 X124.399 Y21.326 E22.0484
G1 X126.499 Y22.506 E22.1285
G1 X128.416 Y23.706 E22.2037
G1 X130.160 Y24.907 E22.2741
G1 X132.080 Y26.363 E22.3543
G1 X133.816 Y27.813 E22.4295
G1 X135.380 Y29.240 E22.4999
G1 X136.983 Y30.838 E22.5752
G1 X138.511 Y32.506 E22.6505
G1 X140.054 Y34.358 E22.7306
G1 X141.417 Y36.161 E22.8058
G1 X142.619 Y37.904 E22.8762
G1 X143.815 Y39.814 E22.9512
G1 X144.659 Y39.034 E22.9894
G1 X145.995 Y37.918 E23.0473
G1 X147.672 Y36.666 E23.1169
G1 X149.270 Y35.612 E23.1806
G1 X150.771 Y34.730 E23.2385
G1 X152.630 Y33.772 E23.3080
G1 X154.381 Y32.992 E23.3718
G1 X156.006 Y32.369 E23.4297
G1 X157.996 Y31.729 E23.4992
G1 X159.679 Y31.287 E23.5571
G1 X161.558 Y30.899 E23.6209
G1 X163.628 Y30.593 E23.6905
G1 X165.361 Y30.434 E23.7484
G1 X167.276 Y30.360 E23.8121
G1 X169.385 Y30.400 E23.8823
G1 X171.338 Y30.555 E23.9474
G1 X173.004 Y30.766 E24.0033
G1 X174.889 Y31.110 E24.0670
G1 X176.980 Y31.625 E24.1386
G1 X178.589 Y32.107 E24.1945
G1 X180.555 Y32.821 E24.2641
G1 X182.313 Y33.576 E24.3277
G1 X183.875 Y34.345 E24.3856
G1 X185.699 Y35.372 E24.4552
G1 X187.326 Y36.417 E24.5196
G1 X189.038 Y37.666 E24.5900
G1 X190.355 Y38.734 E24.6464
G1 X191.776 Y40.019 E24.7102
G1 X193.004 Y41.252 E24.7680
G1 X194.397 Y42.814 E24.8376
G1 X195.482 Y44.175 E24.8955
G1 X196.596 Y45.733 E24.9592
G1 X197.714 Y47.502 E25.0288
G1 X198.643 Y49.179 E25.0926
G1 X199.405 Y50.744 E25.1505
G1 X200.217 Y52.672 E25.2201
G1 X200.857 Y54.476 E25.2837
G1 X201.353 Y56.144 E25.3416
G1 X201.838 Y58.181 E25.4113
G1 X202.147 Y59.894 E25.4692
G1 X202.388 Y61.794 E25.5329
G1 X202.533 Y63.882 E25.6025
G1 X202.554 Y65.797 E25.6662
G1 X202.483 Y67.536 E25.7241
G1 X202.283 Y69.619 E25.7937
G1 X202.021 Y71.340 E25.8516
G1 X201.633 Y73.216 E25.9153
G1 X201.089 Y75.255 E25.9855
G1 X200.469 Y77.114 E26.0506
G1 X199.863 Y78.681 E26.1065
G1 X199.078 Y80.425 E26.1701
G1 X198.110 Y82.282 E26.2398
G1 X197.222 Y83.778 E26.2977
G1 X196.057 Y85.516 E26.3672
G1 X194.901 Y87.043 E26.4309
G1 X193.662 Y88.506 E26.4947
G1 X192.345 Y89.897 E26.5584
G1 X191.019 Y91.157 E26.6193
G1 X80.662 Y190.523 E31.5584
G1 X79.136 Y191.819 E31.6250
G1 X77.611 Y192.973 E31.6886
G1 X76.023 Y194.045 E31.7523
G1 X74.380 Y195.025 E31.8159
G1 X72.843 Y195.837 E31.8738
G1 X71.107 Y196.642 E31.9374
G1 X69.163 Y197.410 E32.0069
G1 X67.327 Y198.015 E32.0712
G1 X65.283 Y198.556 E32.1415
G1 X63.627 Y198.907 E32.1978
G1 X61.733 Y199.202 E32.2616
G1 X60.003 Y199.378 E32.3194
G1 X58.094 Y199.472 E32.3830
G1 X56.003 Y199.456 E32.4526
G1 X54.268 Y199.347 E32.5104
G1 X52.195 Y199.102 E32.5798
G1 X50.482 Y198.804 E32.6376
G1 X48.615 Y198.377 E32.7013
G1 X46.776 Y197.848 E32.7650
G1 X44.803 Y197.156 E32.8345
G1 X43.038 Y196.421 E32.8981
G1 X41.470 Y195.670 E32.9559
G1 X39.789 Y194.754 E33.0196
G1 X38.015 Y193.650 E33.0891
G1 X36.449 Y192.546 E33.1528
G1 X34.948 Y191.359 E33.2165
G1 X33.643 Y190.211 E33.2743
G1 X32.275 Y188.874 E33.3379
G1 X30.865 Y187.329 E33.4075
G1 X29.659 Y185.844 E33.4711
G1 X28.635 Y184.439 E33.5289
G1 X27.591 Y182.838 E33.5925
G1 X26.551 Y181.022 E33.6621
G1 X25.697 Y179.310 E33.7257
G1 X24.937 Y177.553 E33.7894
G1 X24.275 Y175.756 E33.8531
G1 X23.714 Y173.928 E33.9167
G1 X23.291 Y172.242 E33.9745
G1 X22.923 Y170.363 E34.0382
G1 X22.639 Y168.291 E34.1078
G1 X22.499 Y166.559 E34.1656
G1 X22.444 Y164.648 E34.2291
G1 X22.504 Y162.558 E34.2987
G1 X22.669 Y160.651 E34.3624
G1 X22.938 Y158.756 E34.4260
G1 X23.272 Y157.050 E34.4838
G1 X23.737 Y155.194 E34.5475
G1 X24.304 Y153.365 E34.6112
G1 X25.036 Y151.407 E34.6807
G1 X25.734 Y149.815 E34.7385
G1 X26.591 Y148.107 E34.8021
G1 X27.543 Y146.444 E34.8658
G1 X28.684 Y144.693 E34.9353
G1 X29.819 Y143.153 E34.9989
G1 X30.922 Y141.809 E35.0568
G1 X32.213 Y140.395 E35.1204
G1 X33.707 Y138.934 E35.1899
G1 X35.151 Y137.678 E35.2536
G1 X36.520 Y136.607 E35.3114
G1 X37.721 Y135.762 E35.3603
G1 X36.776 Y134.688 E35.4078
G1 X35.703 Y133.334 E35.4653
G1 X34.601 Y131.786 E35.5285
G1 X33.496 Y130.026 E35.5976
G1 X32.578 Y128.361 E35.6609
G1 X31.751 Y126.649 E35.7241
G1 X31.082 Y125.057 E35.7815
G1 X30.437 Y123.266 E35.8448
G1 X29.847 Y121.274 E35.9139
G1 X29.447 Y119.594 E35.9714
G1 X29.103 Y117.723 E36.0346
G1 X28.845 Y115.665 E36.1036
G1 X28.715 Y113.766 E36.1669
G1 X28.688 Y112.038 E36.2244
G1 X28.757 Y110.138 E36.2877
G1 X28.983 Y107.854 E36.3640
G1 X29.236 Y106.191 E36.4199
G1 X29.623 Y104.327 E36.4833
G1 X30.111 Y102.490 E36.5465
G1 X30.699 Y100.681 E36.6097
G1 X31.317 Y99.068 E36.6672
G1 X32.089 Y97.330 E36.7305
G1 X32.956 Y95.635 E36.7938
G1 X33.913 Y93.992 E36.8570
G1 X35.057 Y92.260 E36.9261
G1 X36.087 Y90.873 E36.9835
G1 X37.415 Y89.275 E37.0526
G1 X38.711 Y87.886 E37.1158
G1 X40.082 Y86.566 E37.1791
G1 X41.388 Y85.435 E37.2366
G1 X42.888 Y84.267 E37.2998
G1 X44.448 Y83.181 E37.3630
G1 X46.070 Y82.182 E37.4264
G1 X47.894 Y81.195 E37.4954
G1 X49.617 Y80.386 E37.5587
G1 X51.380 Y79.674 E37.6219
G1 X53.311 Y79.021 E37.6897
G1 X53.016 Y77.997 E37.7251
G1 X52.517 Y75.940 E37.7955
G1 X52.058 Y73.576 E37.8756
G1 X51.730 Y71.338 E37.9509
G1 X51.515 Y69.232 E38.0213
G1 X51.385 Y66.971 E38.0966
G1 X51.360 Y64.563 E38.1767
G1 X51.442 Y62.301 E38.2520
G1 X51.628 Y60.047 E38.3272
G1 X51.894 Y57.947 E38.3976
G1 X52.306 Y55.573 E38.4778
G1 X52.762 Y53.506 E38.5482
G1 X53.347 Y51.319 E38.6235
G1 X54.077 Y49.025 E38.7035
G1 X54.864 Y46.902 E38.7788
G1 X55.746 Y44.820 E38.8540
G1 X56.657 Y42.908 E38.9245
G1 X57.792 Y40.782 E39.0046
G1 X58.898 Y38.925 E39.0765
G0 F1500 X58.949 Y38.840
;PRINTING: front_plate.stl
;PRINTING_ID: 0
G1 F3600 E35.0765
G0 F9000 X62.135 Y40.910
;TYPE:WALL-INNER
;WIDTH:0.400
G1 F3000 E39.0765
G1 F1500 X63.272 Y39.178 E39.1454
G1 X64.508 Y37.471 E39.2155
G1 X65.811 Y35.835 E39.2851
G1 X67.191 Y34.254 E39.3549
G1 X68.623 Y32.757 E39.4238
G1 X70.135 Y31.315 E39.4933
G1 X71.718 Y29.936 E39.5631
G1 X73.362 Y28.631 E39.6329
G1 X75.035 Y27.423 E39.7016
G1 X76.798 Y26.268 E39.7717
G1 X78.589 Y25.208 E39.8409
G1 X80.435 Y24.225 E39.9104
G1 X82.321 Y23.329 E39.9799
G1 X84.256 Y22.515 E40.0497
G1 X86.214 Y21.794 E40.1191
G1 X88.200 Y21.166 E40.1884
G1 X90.478 Y20.568 E40.2667
G1 X92.271 Y20.175 E40.3278
G1 X94.324 Y19.822 E40.3971
G1 X96.396 Y19.562 E40.4665
G1 X98.480 Y19.396 E40.5360
G1 X100.579 Y19.324 E40.6059
G1 X102.666 Y19.349 E40.6753
G1 X104.744 Y19.467 E40.7445
G1 X106.816 Y19.680 E40.8138
G1 X108.896 Y19.991 E40.8838
G1 X110.947 Y20.392 E40.9533
G1 X112.980 Y20.889 E41.0229
G1 X114.992 Y21.477 E41.0926
G1 X116.951 Y22.149 E41.1615
G1 X119.133 Y23.022 E41.2397
G1 X120.822 Y23.779 E41.3012
G1 X122.673 Y24.712 E41.3702
G1 X124.503 Y25.740 E41.4400
G1 X126.283 Y26.851 E41.5098
G1 X127.990 Y28.027 E41.5787
G1 X129.662 Y29.295 E41.6485
G1 X131.254 Y30.620 E41.7174
G1 X132.805 Y32.035 E41.7872
G1 X134.291 Y33.519 E41.8571
G1 X135.699 Y35.062 E41.9265
G1 X137.031 Y36.661 E41.9958
G1 X138.299 Y38.334 E42.0656
G1 X139.481 Y40.047 E42.1348
G1 X140.587 Y41.819 E42.2043
G1 X141.616 Y43.648 E42.2741
G1 X142.967 Y46.326 E42.3738
G1 X144.665 Y44.349 E42.4605
G1 X145.871 Y43.093 E42.5184
G1 X147.103 Y41.943 E42.5745
G1 X148.405 Y40.855 E42.6309
G1 X149.791 Y39.821 E42.6884
G1 X151.205 Y38.883 E42.7449
G1 X152.677 Y38.017 E42.8017
G1 X154.207 Y37.230 E42.8589
G1 X155.763 Y36.532 E42.9156
G1 X157.347 Y35.925 E42.9720
G1 X158.979 Y35.400 E43.0291
G1 X160.625 Y34.967 E43.0857
G1 X162.298 Y34.626 E43.1425
G1 X164.006 Y34.374 E43.1999
G1 X165.675 Y34.221 E43.2556
G1 X167.403 Y34.158 E43.3131
G1 X169.105 Y34.190 E43.3698
G1 X171.022 Y34.342 E43.4337
G1 X172.507 Y34.534 E43.4835
G1 X174.182 Y34.844 E43.5402
G1 X176.048 Y35.309 E43.6041
G1 X177.475 Y35.740 E43.6537
G1 X179.076 Y36.321 E43.7104
