;Sliced by ideaMaker 4.2.2.5450, 2022-04-17 15:10:09 UTC+0200
;Dimension: 225.000 215.000 225.000 0.400
;Plate Shape: 0
;Origin Center: 0
;Extruder Offset #1: 25.000 0.000
;Filament Diameter #1: 1.750
;Filament Diameter #2: 1.750
;Filament Compensation #1: 97.00
;Filament Compensation #2: 100.00
;Filament Density #1: 1240.00
;Filament Density #2: 1240.00
;Bounding Box: 98.903 150.097 93.902 121.097 0.000 12.000
;Model Gap: 0.000
M221 T0 S97.00
M140 S62.00
M104 T0 S220.00
M109 T0 S220.00
T0
M190 S62.00
M900 K0.95
G28 ; Home all axes
G92 E0 ; Reset Extruder
G1 Z2.0 F3000 ; Move Z Axis up little to prevent scratching of Heat Bed
G1 X0.1 Y20 Z0.3 F5000.0 ; Move to start position
G1 X0.1 Y200.0 Z0.3 F1500.0 E15 ; Draw the first line
G1 X0.4 Y200.0 Z0.3 F5000.0 ; Move to side a little
G1 X0.4 Y20 Z0.3 F1500.0 E30 ; Draw the second line
G92 E0 ; Reset Extruder
G1 Z2.0 F3000 ; Move Z Axis up little to prevent scratching of Heat Bed
;TOTAL_NUM: 2
;PRINTING_TIME: 0
;REMAINING_TIME: 1959
;LAYER:0
;Z:0.200
;HEIGHT:0.200
M106 S0
;PRINTING: NON-OBJECT
;PRINTING_ID: -1
G1 F3600 E-4.0000
G0 F9000 X102.403 Y98.243
G0 F1500 Z0.200
G0 F9000 X102.475 Y98.312
;TYPE:SKIRT
;WIDTH:0.400
G1 F3000 E0.0000
G1 F1500 X102.959 Y97.810 E0.0232
G1 X104.002 Y96.886 E0.0695
G1 X104.788 Y96.301 E0.1021
G1 X105.762 Y95.687 E0.1404
G1 X106.653 Y95.223 E0.1738
G1 X107.520 Y94.846 E0.2053
G1 X108.196 Y94.600 E0.2292
G1 X108.854 Y94.399 E0.2521
G1 X109.739 Y94.185 E0.2824
G1 X110.732 Y94.018 E0.3159
G1 X111.671 Y93.927 E0.3472
G1 X112.393 Y93.902 E0.3713
G1 X113.311 Y93.925 E0.4018
G1 X114.343 Y94.025 E0.4363
G1 X115.205 Y94.173 E0.4654
G1 X116.535 Y94.515 E0.5111
G1 X116.822 Y94.606 E0.5211
G1 X117.662 Y94.918 E0.5509
G1 X118.578 Y95.335 E0.5844
G1 X119.409 Y95.787 E0.6158
G1 X120.157 Y96.261 E0.6453
G1 X120.580 Y96.562 E0.6625
G1 X121.160 Y97.016 E0.6870
G1 X121.673 Y97.462 E0.7096
G1 X122.409 Y98.190 E0.7441
G1 X123.115 Y99.003 E0.7799
G1 X123.700 Y99.789 E0.8125
G1 X124.222 Y100.608 E0.8448
G1 X124.504 Y101.112 E0.8640
G1 X124.784 Y100.597 E0.8835
G1 X125.163 Y99.989 E0.9073
G1 X125.470 Y99.545 E0.9253
G1 X126.013 Y98.843 E0.9548
G1 X126.368 Y98.431 E0.9729
G1 X127.191 Y97.590 E1.0120
G1 X128.230 Y96.706 E1.0574
G1 X128.995 Y96.161 E1.0886
G1 X129.587 Y95.790 E1.1119
G1 X130.167 Y95.465 E1.1340
G1 X130.634 Y95.232 E1.1513
G1 X131.522 Y94.845 E1.1836
G1 X132.338 Y94.553 E1.2124
G1 X132.877 Y94.393 E1.2311
G1 X133.736 Y94.185 E1.2605
G1 X134.531 Y94.044 E1.2873
G1 X135.451 Y93.943 E1.3181
G1 X136.616 Y93.902 E1.3569
G1 X137.334 Y93.926 E1.3808
G1 X137.980 Y93.980 E1.4023
G1 X138.520 Y94.051 E1.4205
G1 X139.237 Y94.180 E1.4447
G1 X140.535 Y94.515 E1.4893
G1 X140.820 Y94.605 E1.4992
G1 X141.492 Y94.850 E1.5230
G1 X141.989 Y95.057 E1.5409
G1 X142.575 Y95.333 E1.5625
G1 X143.212 Y95.673 E1.5865
G1 X144.014 Y96.166 E1.6178
G1 X144.456 Y96.471 E1.6356
G1 X145.158 Y97.014 E1.6652
G1 X145.551 Y97.351 E1.6824
G1 X146.411 Y98.192 E1.7224
G1 X147.295 Y99.231 E1.7678
G1 X147.842 Y99.999 E1.7991
G1 X148.212 Y100.591 E1.8223
G1 X148.702 Y101.496 E1.8566
G1 X149.154 Y102.521 E1.8938
G1 X149.400 Y103.197 E1.9178
G1 X149.601 Y103.855 E1.9406
G1 X149.778 Y104.569 E1.9651
G1 X149.884 Y105.092 E1.9829
G1 X150.011 Y105.967 E2.0123
G1 X150.063 Y106.512 E2.0305
G1 X150.097 Y107.624 E2.0675
G1 X150.062 Y108.519 E2.0973
G1 X149.979 Y109.313 E2.1238
G1 X149.760 Y110.506 E2.1642
G1 X149.396 Y111.816 E2.2094
G1 X149.149 Y112.491 E2.2333
G1 X148.876 Y113.136 E2.2566
G1 X148.570 Y113.765 E2.2798
G1 X148.297 Y114.265 E2.2988
G1 X147.429 Y115.592 E2.3515
G1 X146.895 Y116.268 E2.3802
G1 X146.523 Y116.689 E2.3989
G1 X145.813 Y117.406 E2.4324
G1 X145.023 Y118.093 E2.4673
G1 X144.053 Y118.809 E2.5074
G1 X143.603 Y119.095 E2.5251
G1 X142.836 Y119.533 E2.5545
G1 X142.354 Y119.774 E2.5724
G1 X141.483 Y120.153 E2.6040
G1 X140.807 Y120.399 E2.6279
G1 X140.131 Y120.605 E2.6514
G1 X139.292 Y120.810 E2.6801
G1 X138.271 Y120.982 E2.7146
G1 X137.324 Y121.073 E2.7462
G1 X136.388 Y121.097 E2.7774
G1 X135.428 Y121.057 E2.8093
G1 X134.564 Y120.962 E2.8382
G1 X134.201 Y120.904 E2.8505
G1 X132.918 Y120.617 E2.8942
G1 X132.179 Y120.395 E2.9198
G1 X131.293 Y120.062 E2.9513
G1 X130.478 Y119.694 E2.9811
G1 X130.011 Y119.451 E2.9986
G1 X129.407 Y119.103 E3.0218
G1 X128.936 Y118.802 E3.0404
G1 X128.074 Y118.176 E3.0758
G1 X127.667 Y117.839 E3.0934
G1 X127.132 Y117.357 E3.1173
G1 X126.593 Y116.812 E3.1428
G1 X125.886 Y115.997 E3.1787
G1 X125.190 Y115.051 E3.2178
G1 X124.905 Y114.603 E3.2354
G1 X124.501 Y113.891 E3.2626
G1 X124.297 Y114.265 E3.2768
G1 X123.450 Y115.563 E3.3284
G1 X122.989 Y116.154 E3.3533
G1 X122.638 Y116.564 E3.3712
G1 X121.811 Y117.408 E3.4105
G1 X120.780 Y118.287 E3.4556
G1 X120.072 Y118.797 E3.4846
G1 X119.620 Y119.085 E3.5025
G1 X118.836 Y119.533 E3.5325
G1 X118.373 Y119.765 E3.5497
G1 X117.483 Y120.153 E3.5820
G1 X116.807 Y120.399 E3.6059
G1 X116.153 Y120.599 E3.6287
G1 X115.437 Y120.777 E3.6532
G1 X114.805 Y120.903 E3.6746
G1 X114.291 Y120.980 E3.6919
G1 X113.327 Y121.073 E3.7241
G1 X112.602 Y121.097 E3.7483
G1 X111.459 Y121.059 E3.7863
G1 X110.545 Y120.959 E3.8169
G1 X110.174 Y120.899 E3.8294
G1 X108.723 Y120.565 E3.8789
G1 X108.179 Y120.395 E3.8979
G1 X107.293 Y120.062 E3.9294
G1 X106.478 Y119.694 E3.9591
G1 X106.011 Y119.451 E3.9766
G1 X105.407 Y119.103 E3.9998
G1 X104.936 Y118.802 E4.0184
G1 X104.074 Y118.176 E4.0538
G1 X103.667 Y117.839 E4.0714
G1 X103.132 Y117.357 E4.0953
G1 X102.611 Y116.832 E4.1199
G1 X101.731 Y115.802 E4.1650
G1 X101.290 Y115.198 E4.1899
G1 X101.003 Y114.764 E4.2072
G1 X100.547 Y113.984 E4.2372
G1 X100.299 Y113.506 E4.2551
G1 X99.847 Y112.482 E4.2924
G1 X99.603 Y111.810 E4.3161
G1 X99.442 Y111.300 E4.3339
G1 X99.185 Y110.266 E4.3694
G1 X99.040 Y109.442 E4.3972
G1 X98.927 Y108.325 E4.4345
G1 X98.903 Y107.603 E4.4586
G1 X98.925 Y106.694 E4.4888
G1 X99.021 Y105.688 E4.5224
G1 X99.240 Y104.495 E4.5628
G1 X99.519 Y103.452 E4.5987
G1 X99.916 Y102.344 E4.6378
G1 X100.320 Y101.450 E4.6705
G1 X100.784 Y100.597 E4.7027
G1 X101.165 Y99.987 E4.7267
G1 X101.573 Y99.405 E4.7503
G1 X102.125 Y98.708 E4.7799
G1 X102.409 Y98.387 E4.7941
G0 F1500 X102.475 Y98.312
G1 F3600 E0.7941
G0 F9000 X102.763 Y98.590
G1 F3000 E4.7941
G1 F1500 X103.247 Y98.088 E4.8173
G1 X104.241 Y97.207 E4.8615
G1 X105.027 Y96.622 E4.8941
G1 X105.947 Y96.042 E4.9303
G1 X106.813 Y95.590 E4.9628
G1 X107.657 Y95.222 E4.9934
G1 X108.313 Y94.983 E5.0166
G1 X108.971 Y94.782 E5.0395
G1 X109.806 Y94.579 E5.0681
G1 X110.771 Y94.416 E5.1006
G1 X111.685 Y94.327 E5.1312
G1 X112.383 Y94.302 E5.1544
G1 X113.301 Y94.325 E5.1849
G1 X114.275 Y94.419 E5.2175
G1 X115.137 Y94.567 E5.2466
G1 X116.414 Y94.896 E5.2904
G1 X116.683 Y94.981 E5.2998
G1 X117.497 Y95.282 E5.3287
G1 X118.387 Y95.686 E5.3612
G1 X119.195 Y96.125 E5.3918
G1 X119.925 Y96.587 E5.4205
G1 X120.348 Y96.888 E5.4378
G1 X120.898 Y97.318 E5.4610
G1 X121.411 Y97.764 E5.4836
G1 X122.107 Y98.452 E5.5162
G1 X122.794 Y99.242 E5.5510
G1 X123.379 Y100.028 E5.5836
G1 X123.873 Y100.803 E5.6141
G1 X124.177 Y101.347 E5.6349
G1 X124.497 Y102.010 E5.6593
G1 X124.685 Y101.615 E5.6739
G1 X125.123 Y100.809 E5.7044
G1 X125.493 Y100.216 E5.7277
G1 X125.786 Y99.790 E5.7448
G1 X126.317 Y99.103 E5.7737
G1 X126.654 Y98.710 E5.7909
G1 X127.451 Y97.894 E5.8289
G1 X128.462 Y97.032 E5.8731
G1 X129.207 Y96.500 E5.9035
G1 X129.799 Y96.129 E5.9268
G1 X130.346 Y95.823 E5.9476
G1 X130.813 Y95.590 E5.9650
G1 X131.657 Y95.222 E5.9956
G1 X132.473 Y94.930 E6.0244
G1 X132.971 Y94.782 E6.0417
G1 X133.806 Y94.579 E6.0703
G1 X134.601 Y94.438 E6.0971
G1 X135.465 Y94.343 E6.1260
G1 X136.603 Y94.302 E6.1639
G1 X137.301 Y94.325 E6.1871
G1 X137.928 Y94.377 E6.2081
G1 X138.450 Y94.445 E6.2256
G1 X139.137 Y94.567 E6.2488
G1 X140.414 Y94.896 E6.2926
G1 X140.683 Y94.981 E6.3020
G1 X141.339 Y95.220 E6.3252
G1 X141.819 Y95.419 E6.3425
G1 X142.387 Y95.686 E6.3634
G1 X143.003 Y96.014 E6.3866
G1 X143.787 Y96.495 E6.4172
G1 X144.211 Y96.787 E6.4343
G1 X144.898 Y97.318 E6.4632
G1 X145.291 Y97.655 E6.4804
G1 X146.107 Y98.452 E6.5184
G1 X146.969 Y99.463 E6.5626
G1 X147.503 Y100.211 E6.5931
G1 X147.873 Y100.803 E6.6163
G1 X148.336 Y101.658 E6.6487
G1 X148.778 Y102.658 E6.6850
G1 X149.017 Y103.314 E6.7083
G1 X149.218 Y103.972 E6.7312
G1 X149.386 Y104.649 E6.7544
G1 X149.488 Y105.150 E6.7714
G1 X149.613 Y106.005 E6.8001
G1 X149.663 Y106.525 E6.8175
G1 X149.697 Y107.609 E6.8535
G1 X149.664 Y108.477 E6.8824
G1 X149.581 Y109.271 E6.9090
G1 X149.375 Y110.399 E6.9471
G1 X149.020 Y111.679 E6.9913
G1 X148.781 Y112.335 E7.0145
G1 X148.516 Y112.961 E7.0371
G1 X148.210 Y113.590 E7.0604
G1 X147.962 Y114.046 E7.0777
G1 X147.115 Y115.344 E7.1292
G1 X146.581 Y116.020 E7.1579
G1 X146.239 Y116.408 E7.1751
G1 X145.551 Y117.104 E7.2076
G1 X144.761 Y117.791 E7.2424
G1 X143.838 Y118.472 E7.2806
G1 X143.405 Y118.748 E7.2977
G1 X142.657 Y119.175 E7.3263
G1 X142.194 Y119.407 E7.3435
G1 X141.346 Y119.777 E7.3743
G1 X140.690 Y120.016 E7.3975
G1 X140.036 Y120.216 E7.4203
G1 X139.197 Y120.421 E7.4490
G1 X138.232 Y120.584 E7.4816
G1 X137.313 Y120.673 E7.5123
G1 X136.404 Y120.697 E7.5425
G1 X135.472 Y120.659 E7.5735
G1 X134.608 Y120.564 E7.6024
G1 X134.264 Y120.509 E7.6140
G1 X133.033 Y120.234 E7.6560
G1 X132.319 Y120.020 E7.6808
G1 X131.457 Y119.697 E7.7114
G1 X130.663 Y119.339 E7.7404
G1 X130.211 Y119.104 E7.7573
G1 X129.607 Y118.756 E7.7805
G1 X129.171 Y118.478 E7.7977
G1 X128.329 Y117.867 E7.8323
G1 X127.935 Y117.542 E7.8493
G1 X127.416 Y117.075 E7.8725
G1 X126.895 Y116.550 E7.8971
G1 X126.208 Y115.760 E7.9319
G1 X125.527 Y114.836 E7.9701
G1 X125.251 Y114.403 E7.9872
G1 X124.902 Y113.799 E8.0104
G1 X124.502 Y112.990 E8.0404
G1 X124.210 Y113.590 E8.0626
G1 X123.962 Y114.046 E8.0799
G1 X123.115 Y115.344 E8.1314
G1 X122.685 Y115.894 E8.1546
G1 X122.352 Y116.284 E8.1717
G1 X121.551 Y117.104 E8.2098
G1 X120.546 Y117.962 E8.2538
G1 X119.838 Y118.472 E8.2828
G1 X119.405 Y118.748 E8.2999
G1 X118.657 Y119.175 E8.3285
G1 X118.194 Y119.407 E8.3457
G1 X117.346 Y119.777 E8.3765
G1 X116.690 Y120.016 E8.3997
G1 X116.036 Y120.216 E8.4225
G1 X115.359 Y120.385 E8.4457
G1 X114.746 Y120.507 E8.4665
G1 X114.232 Y120.584 E8.4838
G1 X113.313 Y120.673 E8.5145
G1 X112.615 Y120.697 E8.5377
G1 X111.472 Y120.659 E8.5757
G1 X110.608 Y120.564 E8.6046
G1 X110.264 Y120.509 E8.6162
G1 X108.813 Y120.175 E8.6657
G1 X108.319 Y120.020 E8.6830
G1 X107.457 Y119.697 E8.7136
G1 X106.663 Y119.339 E8.7426
G1 X106.211 Y119.104 E8.7595
G1 X105.607 Y118.756 E8.7827
G1 X105.171 Y118.478 E8.7999
G1 X104.329 Y117.867 E8.8345
G1 X103.935 Y117.542 E8.8515
G1 X103.416 Y117.075 E8.8747
G1 X102.895 Y116.550 E8.8993
G1 X102.035 Y115.542 E8.9434
G1 X101.624 Y114.977 E8.9666
G1 X101.337 Y114.543 E8.9839
G1 X100.902 Y113.799 E9.0126
G1 X100.665 Y113.344 E9.0296
G1 X100.223 Y112.345 E9.0660
G1 X99.984 Y111.689 E9.0892
G1 X99.830 Y111.203 E9.1061
G1 X99.579 Y110.196 E9.1407
G1 X99.438 Y109.401 E9.1675
G1 X99.327 Y108.311 E9.2040
G1 X99.303 Y107.613 E9.2272
G1 X99.325 Y106.704 E9.2574
G1 X99.419 Y105.726 E9.2901
G1 X99.626 Y104.598 E9.3283
G1 X99.896 Y103.587 E9.3631
G1 X100.281 Y102.509 E9.4011
G1 X100.685 Y101.615 E9.4338
G1 X101.123 Y100.809 E9.4643
G1 X101.493 Y100.216 E9.4875
G1 X101.887 Y99.653 E9.5104
G1 X102.425 Y98.973 E9.5392
G1 X102.697 Y98.665 E9.5529
G0 F1500 X102.763 Y98.590
;PRINTING: wall_mount.stl
;PRINTING_ID: 0
G1 F3600 E5.5529
G0 F9000 X105.969 Y100.740
;TYPE:WALL-INNER
;WIDTH:0.400
G1 F3000 E9.5529
G1 F1500 X106.711 Y100.095 E9.5856
G1 X107.252 Y99.702 E9.6078
G1 X107.791 Y99.365 E9.6290
G1 X108.386 Y99.048 E9.6514
G1 X108.974 Y98.786 E9.6728
G1 X109.907 Y98.465 E9.7056
G1 X110.537 Y98.308 E9.7272
G1 X111.189 Y98.193 E9.7492
G1 X111.841 Y98.125 E9.7710
G1 X112.500 Y98.100 E9.7930
G1 X113.154 Y98.123 E9.8147
G1 X113.807 Y98.191 E9.8366
G1 X114.457 Y98.306 E9.8585
G1 X115.398 Y98.557 E9.8909
G1 X116.015 Y98.782 E9.9128
G1 X116.620 Y99.051 E9.9348
G1 X117.201 Y99.360 E9.9567
G1 X118.033 Y99.901 E9.9897
G1 X118.543 Y100.301 E10.0112
G1 X119.261 Y100.970 E10.0439
G1 X119.906 Y101.712 E10.0766
G1 X120.287 Y102.237 E10.0981
G1 X120.637 Y102.796 E10.1201
G1 X120.952 Y103.387 E10.1424
G1 X121.213 Y103.975 E10.1638
G1 X121.439 Y104.594 E10.1857
G1 X121.535 Y104.908 E10.1966
G1 X121.691 Y105.535 E10.2181
G1 X121.756 Y105.868 E10.2294
G1 X121.849 Y106.525 E10.2514
G1 X121.899 Y107.495 E10.2837
G1 X121.878 Y108.144 E10.3053
G1 X121.809 Y108.803 E10.3274
G1 X121.695 Y109.453 E10.3493
G1 X121.444 Y110.391 E10.3816
G1 X121.090 Y111.316 E10.4146
G1 X120.650 Y112.183 E10.4469
G1 X120.107 Y113.022 E10.4801
G1 X119.503 Y113.770 E10.5121
G1 X119.036 Y114.254 E10.5345
G1 X118.289 Y114.904 E10.5674
G1 X117.760 Y115.290 E10.5892
G1 X116.916 Y115.797 E10.6220
G1 X116.023 Y116.214 E10.6547
G1 X115.116 Y116.529 E10.6867
G1 X114.457 Y116.694 E10.7093
G1 X113.821 Y116.806 E10.7307
G1 X113.162 Y116.875 E10.7528
G1 X112.503 Y116.899 E10.7747
G1 X111.850 Y116.878 E10.7964
G1 X110.884 Y116.759 E10.8288
G1 X109.900 Y116.534 E10.8624
G1 X108.983 Y116.218 E10.8946
G1 X108.384 Y115.951 E10.9165
G1 X107.525 Y115.474 E10.9491
G1 X106.705 Y114.902 E10.9824
G1 X106.468 Y114.709 E10.9926
G1 X105.753 Y114.045 E11.0250
G1 X105.095 Y113.289 E11.0583
G1 X104.707 Y112.755 E11.0803
G1 X104.197 Y111.905 E11.1133
G1 X103.787 Y111.026 E11.1455
G1 X103.464 Y110.092 E11.1784
G1 X103.308 Y109.462 E11.2000
G1 X103.193 Y108.810 E11.2220
G1 X103.125 Y108.159 E11.2438
G1 X103.101 Y107.508 E11.2654
G1 X103.123 Y106.845 E11.2875
G1 X103.192 Y106.188 E11.3095
G1 X103.306 Y105.544 E11.3312
G1 X103.558 Y104.602 E11.3637
G1 X103.781 Y103.989 E11.3854
G1 X104.049 Y103.384 E11.4074
G1 X104.362 Y102.796 E11.4295
G1 X104.894 Y101.976 E11.4620
G1 X105.300 Y101.457 E11.4840
G1 X105.901 Y100.813 E11.5132
G0 F1500 X105.969 Y100.740
G1 F3600 E7.5132
G0 F9000 X105.763 Y100.521
G0 F9000 X105.691 Y100.452
;TYPE:WALL-OUTER
;WIDTH:0.400
G1 F3000 E11.5132
G1 F1500 X106.466 Y99.778 E11.5474
G1 X107.023 Y99.374 E11.5703
G1 X107.592 Y99.018 E11.5926
G1 X108.208 Y98.690 E11.6158
G1 X108.830 Y98.413 E11.6385
G1 X109.476 Y98.178 E11.6613
G1 X109.790 Y98.082 E11.6723
G1 X110.457 Y97.916 E11.6951
G1 X111.134 Y97.796 E11.7180
G1 X111.814 Y97.725 E11.7407
G1 X112.498 Y97.700 E11.7635
G1 X113.182 Y97.723 E11.7863
G1 X113.862 Y97.794 E11.8090
G1 X114.536 Y97.914 E11.8318
G1 X115.525 Y98.178 E11.8658
G1 X116.166 Y98.411 E11.8885
G1 X116.792 Y98.689 E11.9113
G1 X117.400 Y99.013 E11.9342
G1 X117.985 Y99.379 E11.9571
G1 X118.262 Y99.573 E11.9684
G1 X118.804 Y99.997 E11.9913
G1 X119.549 Y100.692 E12.0252
G1 X120.223 Y101.467 E12.0593
G1 X120.619 Y102.013 E12.0818
G1 X120.984 Y102.597 E12.1047
G1 X121.310 Y103.209 E12.1277
G1 X121.588 Y103.834 E12.1505
G1 X121.822 Y104.477 E12.1732
G1 X121.918 Y104.791 E12.1842
G1 X122.084 Y105.458 E12.2070
G1 X122.149 Y105.791 E12.2183
G1 X122.247 Y106.482 E12.2415
G1 X122.299 Y107.500 E12.2754
G1 X122.277 Y108.178 E12.2980
G1 X122.206 Y108.858 E12.3207
G1 X122.087 Y109.532 E12.3435
G1 X121.822 Y110.523 E12.3776
G1 X121.458 Y111.474 E12.4115
G1 X121.157 Y112.093 E12.4344
G1 X120.995 Y112.386 E12.4455
G1 X120.431 Y113.257 E12.4800
G1 X120.006 Y113.800 E12.5030
G1 X119.791 Y114.048 E12.5139
G1 X119.311 Y114.546 E12.5369
G1 X118.543 Y115.214 E12.5707
G1 X117.981 Y115.624 E12.5939
G1 X117.109 Y116.148 E12.6277
G1 X116.169 Y116.587 E12.6622
G1 X115.526 Y116.821 E12.6850
G1 X115.213 Y116.917 E12.6959
G1 X114.537 Y117.086 E12.7190
G1 X113.876 Y117.203 E12.7414
G1 X113.189 Y117.275 E12.7643
G1 X112.504 Y117.299 E12.7871
G1 X111.821 Y117.277 E12.8099
G1 X110.815 Y117.154 E12.8436
G1 X109.793 Y116.920 E12.8784
G1 X108.836 Y116.590 E12.9121
G1 X108.201 Y116.307 E12.9352
G1 X107.314 Y115.815 E12.9690
G1 X107.021 Y115.625 E12.9806
G1 X106.463 Y115.221 E13.0035
G1 X106.209 Y115.014 E13.0144
G1 X105.461 Y114.319 E13.0484
G1 X104.783 Y113.540 E13.0827
G1 X104.374 Y112.977 E13.1058
G1 X103.846 Y112.098 E13.1400
G1 X103.414 Y111.172 E13.1739
G1 X103.179 Y110.526 E13.1968
G1 X103.079 Y110.201 E13.2081
G1 X102.915 Y109.538 E13.2308
G1 X102.796 Y108.865 E13.2536
G1 X102.725 Y108.186 E13.2763
G1 X102.701 Y107.509 E13.2988
